; generated by PrusaSlicer 2.4.2+win64 on 2022-05-12 at 17:26:20 UTC

; 

; external perimeters extrusion width = 0.45mm
; perimeters extrusion width = 0.45mm
; infill extrusion width = 0.45mm
; solid infill extrusion width = 0.45mm
; top infill extrusion width = 0.40mm
; first layer extrusion width = 0.42mm

M73 P0 R66
M73 Q0 S66
M107
;TYPE:Custom
M862.3 P "MK3SMMU2S" ; printer model check
M862.1 P0.4 ; nozzle diameter check
M115 U3.11.0 ; tell printer latest fw version
G90 ; use absolute coordinates
M83 ; extruder relative mode
M104 S215 ; set extruder temp
M140 S60 ; set bed temp
Tx
M190 S60 ; wait for bed temp
M109 S215 ; wait for extruder temp
G28 W ; home all without mesh bed level
G80 ; mesh bed leveling

;go outside print area
G1 Y-3.0 F1000.0
G1 Z0.4 F1000.0
; select extruder
Tc
; purge line
G1 X55.0 F2000.0
G1 Z0.3 F1000.0
G92 E0.0
M73 P0 R65
G1 X240.0 E25.0 F2200.0
G1 Y-2.0 F1000.0
M73 Q0 S65
G1 X55.0 E25 F1400.0
G1 Z0.20 F1000.0
G1 X5.0 E4.0 F1000.0

M221 S95
G92 E0.0

; Don't change E values below. Excessive value can damage the printer.

M907 E538 ; set extruder motor current
G21 ; set units to millimeters
G90 ; use absolute coordinates
M83 ; use relative distances for extrusion
M900 K0.05 ; Filament gcode LA 1.5
M900 K30 ; Filament gcode LA 1.0
M107
;LAYER_CHANGE
;Z:0.2
;HEIGHT:0.2
;BEFORE_LAYER_CHANGE
G92 E0.0
;0.2


G1 E-.8 F2100
G1 Z.4 F10800
;AFTER_LAYER_CHANGE
;0.2
; printing object Among_Us.stl id:0 copy 0
G1 X133.709 Y99.034
G1 Z.2
G1 E.8 F2100
M204 S1000
;TYPE:External perimeter
;WIDTH:0.42
G1 F900
G1 X134.768 Y98.216 E.04197
G1 X136.029 Y97.739 E.04225
G1 X137.405 Y97.597 E.04338
G1 X138.774 Y97.78 E.04331
G1 X140.018 Y98.294 E.04221
G1 X141.053 Y99.142 E.04194
G1 X141.843 Y100.261 E.04294
G1 X142.346 Y101.555 E.04352
G1 X142.511 Y102.924 E.04326
G1 X142.305 Y104.289 E.04327
G1 X141.763 Y105.567 E.04352
G1 X140.943 Y106.659 E.04284
G1 X139.883 Y107.477 E.04197
G1 X138.623 Y107.954 E.04225
G1 X137.246 Y108.096 E.04338
G1 X135.876 Y107.913 E.04334
G1 X134.633 Y107.399 E.04219
G1 X133.599 Y106.551 E.04194
G1 X132.809 Y105.432 E.04294
G1 X132.305 Y104.139 E.04352
G1 X132.14 Y102.769 E.04326
G1 X132.346 Y101.404 E.04327
G1 X132.888 Y100.126 E.04352
G1 X133.672 Y99.081 E.04096
;WIPE_START
G1 F8640
G1 X134.768 Y98.216 E-.32251
G1 X136.029 Y97.739 E-.31115
G1 X136.573 Y97.683 E-.12634
;WIPE_END
G1 E-.04 F2100
G1 Z.6 F10800
G1 X117.668 Y101.495
G1 Z.2
G1 E.8 F2100
G1 F900
G1 X117.86 Y102.767 E.04034
G1 X117.695 Y104.137 E.04326
G1 X117.191 Y105.43 E.04352
G1 X116.401 Y106.549 E.04295
G1 X115.366 Y107.397 E.04194
G1 X114.123 Y107.911 E.04219
G1 X112.752 Y108.093 E.04334
G1 X111.376 Y107.951 E.04338
G1 X110.116 Y107.474 E.04225
G1 X109.058 Y106.657 E.04192
G1 X108.236 Y105.563 E.0429
G1 X107.695 Y104.285 E.04351
G1 X107.489 Y102.921 E.04327
G1 X107.654 Y101.551 E.04326
G1 X108.158 Y100.258 E.04352
G1 X108.948 Y99.139 E.04294
G1 X109.983 Y98.291 E.04194
G1 X111.226 Y97.777 E.04219
G1 X112.596 Y97.595 E.04331
G1 X113.973 Y97.737 E.04341
G1 X115.233 Y98.214 E.04225
G1 X116.291 Y99.031 E.04192
G1 X117.113 Y100.125 E.0429
G1 X117.659 Y101.436 E.04452
; stop printing object Among_Us.stl id:0 copy 0
M106 S84.15
;LAYER_CHANGE
;Z:0.4
;HEIGHT:0.2
;BEFORE_LAYER_CHANGE
G92 E0.0
;0.4


;WIPE_START
G1 F8640
G1 X117.86 Y102.767 E-.31094
G1 X117.695 Y104.137 E-.31859
G1 X117.489 Y104.664 E-.13047
;WIPE_END
G1 E-.04 F2100
G1 Z.6 F10800
;AFTER_LAYER_CHANGE
;0.4
M104 S210 ; set temperature
; printing object Among_Us.stl id:0 copy 0
G1 X118.444 Y105.048
G1 Z.4
G1 E.8 F2100
M204 S800
;WIDTH:0.45
G1 F900
G1 X118.107 Y105.884 E.0305
G1 X117.141 Y107.204 E.05535
G1 X115.88 Y108.219 E.05479
G1 X114.387 Y108.847 E.05483
G1 X112.766 Y109.073 E.05541
G1 X111.139 Y108.894 E.05541
G1 X109.629 Y108.309 E.05483
G1 X108.339 Y107.331 E.05479
G1 X107.336 Y106.04 E.05535
G1 X106.68 Y104.539 E.05543
G1 X106.432 Y102.935 E.05496
G1 X106.633 Y101.324 E.05496
G1 X107.245 Y99.805 E.05543
G1 X108.211 Y98.485 E.05535
G1 X109.472 Y97.47 E.05479
G1 X110.965 Y96.842 E.05483
G1 X112.586 Y96.616 E.0554
G1 X114.213 Y96.795 E.05541
G1 X115.724 Y97.38 E.05483
G1 X117.013 Y98.358 E.05479
G1 X118.017 Y99.649 E.05535
G1 X118.673 Y101.15 E.05543
G1 X118.92 Y102.754 E.05496
G1 X118.719 Y104.365 E.05496
G1 X118.466 Y104.993 E.02289
M204 S1000
;WIPE_START
G1 F8640
G1 X118.107 Y105.884 E-.22193
G1 X117.141 Y107.204 E-.3776
G1 X116.6 Y107.64 E-.16047
;WIPE_END
G1 E-.04 F2100
G1 Z.8 F10800
G1 X131.08 Y102.756
G1 Z.4
G1 E.8 F2100
M204 S800
G1 F900
G1 X131.328 Y101.151 E.05496
G1 X131.984 Y99.651 E.05543
G1 X132.988 Y98.36 E.05535
G1 X134.277 Y97.382 E.05479
G1 X135.788 Y96.797 E.05483
G1 X137.415 Y96.619 E.05541
G1 X139.036 Y96.845 E.0554
G1 X140.529 Y97.473 E.05483
G1 X141.79 Y98.489 E.05479
G1 X142.755 Y99.809 E.05535
G1 X143.367 Y101.327 E.05543
G1 X143.568 Y102.939 E.05496
G1 X143.32 Y104.543 E.05496
G1 X142.664 Y106.043 E.05543
G1 X141.66 Y107.335 E.05535
G1 X140.37 Y108.313 E.05479
G1 X138.86 Y108.897 E.05483
G1 X137.233 Y109.076 E.05541
G1 X135.611 Y108.85 E.05541
G1 X134.118 Y108.221 E.05483
G1 X132.858 Y107.206 E.05479
G1 X131.892 Y105.886 E.05535
G1 X131.28 Y104.367 E.05543
G1 X131.087 Y102.815 E.05292
M204 S1000
; stop printing object Among_Us.stl id:0 copy 0
M106 S170.85
;LAYER_CHANGE
;Z:0.6
;HEIGHT:0.2
;BEFORE_LAYER_CHANGE
G92 E0.0
;0.6


;WIPE_START
G1 F8640
G1 X131.328 Y101.151 E-.38823
G1 X131.973 Y99.676 E-.37177
;WIPE_END
G1 E-.04 F2100
G1 Z.8 F10800
;AFTER_LAYER_CHANGE
;0.6
; printing object Among_Us.stl id:0 copy 0
G1 X118.385 Y99.437
G1 Z.6
G1 E.8 F2100
M204 S800
G1 F900
G1 X119.087 Y101.037 E.05915
G1 X119.351 Y102.749 E.05863
G1 X119.136 Y104.468 E.05863
G1 X118.481 Y106.088 E.05915
G1 X117.447 Y107.496 E.05913
G1 X116.098 Y108.58 E.05858
G1 X114.503 Y109.252 E.05859
G1 X112.773 Y109.494 E.05914
G1 X111.036 Y109.302 E.05914
G1 X109.422 Y108.676 E.05859
G1 X108.043 Y107.631 E.05858
G1 X106.969 Y106.253 E.05913
G1 X106.268 Y104.652 E.05915
G1 X106.004 Y102.94 E.05863
G1 X106.219 Y101.222 E.05863
G1 X106.874 Y99.602 E.05915
G1 X107.908 Y98.194 E.05913
G1 X109.257 Y97.109 E.05858
G1 X110.852 Y96.437 E.05859
G1 X112.582 Y96.196 E.05914
G1 X114.319 Y96.388 E.05915
G1 X115.933 Y97.014 E.05859
G1 X117.312 Y98.059 E.05858
G1 X118.349 Y99.389 E.0571
M204 S1000
;WIPE_START
G1 F8640
G1 X119.087 Y101.037 E-.41694
G1 X119.313 Y102.506 E-.34306
;WIPE_END
G1 E-.04 F2100
G1 Z1 F10800
G1 X131.615 Y99.438
G1 Z.6
G1 E.8 F2100
M204 S800
G1 F900
G1 X132.689 Y98.06 E.05913
G1 X134.069 Y97.016 E.05858
G1 X135.682 Y96.39 E.05859
G1 X137.419 Y96.198 E.05915
G1 X139.15 Y96.44 E.05914
G1 X140.745 Y97.113 E.05859
G1 X142.093 Y98.197 E.05858
G1 X143.127 Y99.605 E.05913
G1 X143.781 Y101.226 E.05915
G1 X143.996 Y102.944 E.05863
G1 X143.731 Y104.656 E.05863
G1 X143.03 Y106.257 E.05915
G1 X141.956 Y107.634 E.05913
G1 X140.576 Y108.679 E.05858
G1 X138.963 Y109.305 E.05859
G1 X137.226 Y109.497 E.05914
G1 X135.495 Y109.255 E.05914
G1 X133.9 Y108.582 E.05859
G1 X132.552 Y107.498 E.05858
G1 X131.519 Y106.089 E.05913
G1 X130.864 Y104.469 E.05915
G1 X130.649 Y102.75 E.05863
G1 X130.914 Y101.039 E.05863
G1 X131.591 Y99.493 E.05712
M204 S1000
; stop printing object Among_Us.stl id:0 copy 0
M106 S255
;LAYER_CHANGE
;Z:0.8
;HEIGHT:0.2
;BEFORE_LAYER_CHANGE
G92 E0.0
;0.8


;WIPE_START
G1 F8640
G1 X132.689 Y98.06 E-.41678
G1 X133.874 Y97.163 E-.34322
;WIPE_END
G1 E-.04 F2100
G1 Z1 F10800
;AFTER_LAYER_CHANGE
;0.8
; printing object Among_Us.stl id:0 copy 0
G1 X119.39 Y100.954
G1 Z.8
G1 E.8 F2100
M204 S800
G1 F900
G1 X119.667 Y102.745 E.06135
G1 X119.441 Y104.544 E.06135
G1 X118.755 Y106.239 E.0619
G1 X117.672 Y107.712 E.0619
G1 X116.259 Y108.847 E.06135
G1 X114.589 Y109.551 E.06135
G1 X112.778 Y109.804 E.0619
G1 X110.96 Y109.603 E.0619
G1 X109.271 Y108.947 E.06135
G1 X107.826 Y107.852 E.06135
G1 X106.701 Y106.411 E.0619
G1 X105.967 Y104.736 E.0619
G1 X105.691 Y102.945 E.06135
G1 X105.916 Y101.146 E.06135
G1 X106.602 Y99.451 E.0619
M73 Q1 S65
G1 X107.685 Y97.978 E.0619
G1 X109.098 Y96.843 E.06135
G1 X110.768 Y96.139 E.06135
G1 X112.579 Y95.886 E.0619
M73 P1 R65
G1 X114.397 Y96.087 E.0619
G1 X116.086 Y96.743 E.06135
G1 X117.531 Y97.838 E.06135
G1 X118.656 Y99.28 E.0619
G1 X119.366 Y100.899 E.05987
M204 S1000
;WIPE_START
G1 F8640
G1 X119.667 Y102.745 E-.43189
G1 X119.49 Y104.155 E-.32811
;WIPE_END
G1 E-.04 F2100
G1 Z1.2 F10800
G1 X130.333 Y102.747
G1 Z.8
G1 E.8 F2100
M204 S800
G1 F900
G1 X130.61 Y100.955 E.06135
G1 X131.345 Y99.281 E.0619
G1 X132.47 Y97.839 E.0619
G1 X133.915 Y96.745 E.06135
G1 X135.604 Y96.089 E.06135
G1 X137.422 Y95.889 E.0619
G1 X139.233 Y96.142 E.0619
G1 X140.903 Y96.846 E.06135
G1 X142.316 Y97.982 E.06135
G1 X143.398 Y99.455 E.0619
G1 X144.085 Y101.15 E.0619
G1 X144.309 Y102.949 E.06135
G1 X144.033 Y104.74 E.06135
G1 X143.298 Y106.414 E.0619
G1 X142.173 Y107.856 E.0619
G1 X140.728 Y108.95 E.06135
G1 X139.038 Y109.606 E.06135
G1 X137.221 Y109.807 E.0619
G1 X135.41 Y109.553 E.0619
G1 X133.74 Y108.849 E.06135
G1 X132.327 Y107.714 E.06135
G1 X131.244 Y106.24 E.0619
G1 X130.558 Y104.545 E.0619
G1 X130.341 Y102.806 E.05932
M204 S1000
; stop printing object Among_Us.stl id:0 copy 0
;LAYER_CHANGE
;Z:1
;HEIGHT:0.2
;BEFORE_LAYER_CHANGE
G92 E0.0
;1


;WIPE_START
G1 F8640
G1 X130.61 Y100.955 E-.43182
G1 X131.181 Y99.654 E-.32818
;WIPE_END
G1 E-.04 F2100
G1 Z1.2 F10800
;AFTER_LAYER_CHANGE
;1
; printing object Among_Us.stl id:0 copy 0
G1 X119.595 Y100.897
G1 Z1
G1 E.8 F2100
M204 S800
G1 F900
G1 X119.88 Y102.743 E.06322
G1 X119.648 Y104.596 E.06322
G1 X118.941 Y106.342 E.06378
G1 X117.825 Y107.86 E.06378
G1 X116.369 Y109.03 E.06322
G1 X114.648 Y109.755 E.06322
G1 X112.781 Y110.016 E.06378
G1 X110.909 Y109.809 E.06378
G1 X109.168 Y109.132 E.06322
G1 X107.679 Y108.005 E.06322
G1 X106.52 Y106.519 E.06378
G1 X105.764 Y104.793 E.06378
G1 X105.479 Y102.948 E.06322
G1 X105.711 Y101.094 E.06322
G1 X106.419 Y99.348 E.06378
G1 X107.535 Y97.83 E.06378
G1 X108.991 Y96.66 E.06322
G1 X110.712 Y95.935 E.06321
G1 X112.578 Y95.674 E.06378
G1 X114.45 Y95.882 E.06378
G1 X116.191 Y96.558 E.06322
G1 X117.68 Y97.686 E.06321
G1 X118.839 Y99.172 E.06378
G1 X119.571 Y100.842 E.06175
M204 S1000
;WIPE_START
G1 F8640
G1 X119.88 Y102.743 E-.44463
G1 X119.71 Y104.098 E-.31537
;WIPE_END
G1 E-.04 F2100
G1 Z1.4 F10800
G1 X130.12 Y102.744
G1 Z1
G1 E.8 F2100
M204 S800
G1 F900
G1 X130.405 Y100.898 E.06322
G1 X131.162 Y99.173 E.06378
G1 X132.321 Y97.687 E.06378
G1 X133.81 Y96.56 E.06321
G1 X135.551 Y95.884 E.06322
G1 X137.424 Y95.677 E.06378
G1 X139.29 Y95.938 E.06378
G1 X141.011 Y96.664 E.06321
G1 X142.466 Y97.834 E.06322
G1 X143.582 Y99.352 E.06378
G1 X144.289 Y101.098 E.06378
G1 X144.521 Y102.952 E.06322
G1 X144.236 Y104.797 E.06322
G1 X143.479 Y106.523 E.06378
G1 X142.32 Y108.008 E.06378
G1 X140.831 Y109.136 E.06321
G1 X139.09 Y109.811 E.06322
G1 X137.217 Y110.019 E.06378
G1 X135.351 Y109.758 E.06378
G1 X133.63 Y109.032 E.06322
G1 X132.174 Y107.862 E.06322
G1 X131.059 Y106.344 E.06378
G1 X130.352 Y104.597 E.06378
G1 X130.127 Y102.803 E.06118
M204 S1000
; stop printing object Among_Us.stl id:0 copy 0
;LAYER_CHANGE
;Z:1.2
;HEIGHT:0.2
;BEFORE_LAYER_CHANGE
G92 E0.0
;1.2


;WIPE_START
G1 F8640
G1 X130.405 Y100.898 E-.44457
G1 X130.954 Y99.647 E-.31543
;WIPE_END
G1 E-.04 F2100
G1 Z1.4 F10800
;AFTER_LAYER_CHANGE
;1.2
; printing object Among_Us.stl id:0 copy 0
G1 X119.801 Y100.84
G1 Z1.2
G1 E.8 F2100
M204 S800
G1 F900
G1 X120.094 Y102.74 E.06508
G1 X119.855 Y104.648 E.06508
G1 X119.126 Y106.446 E.06566
G1 X117.977 Y108.009 E.06566
G1 X116.478 Y109.213 E.06508
G1 X114.706 Y109.96 E.06508
G1 X112.785 Y110.228 E.06566
G1 X110.857 Y110.014 E.06566
G1 X109.065 Y109.318 E.06508
G1 X107.532 Y108.157 E.06508
G1 X106.339 Y106.627 E.06566
G1 X105.56 Y104.851 E.06566
G1 X105.267 Y102.95 E.06508
G1 X105.507 Y101.043 E.06508
G1 X106.235 Y99.245 E.06566
G1 X107.384 Y97.682 E.06566
G1 X108.883 Y96.478 E.06508
G1 X110.655 Y95.731 E.06508
G1 X112.576 Y95.463 E.06566
G1 X114.504 Y95.676 E.06566
G1 X116.296 Y96.373 E.06508
G1 X117.829 Y97.534 E.06508
G1 X119.022 Y99.063 E.06566
G1 X119.777 Y100.785 E.06363
M204 S1000
;WIPE_START
G1 F8640
G1 X120.094 Y102.74 E-.45737
G1 X119.931 Y104.041 E-.30263
;WIPE_END
G1 E-.04 F2100
G1 Z1.6 F10800
G1 X129.906 Y102.741
G1 Z1.2
G1 E.8 F2100
M204 S800
G1 F900
G1 X130.2 Y100.841 E.06508
G1 X130.979 Y99.065 E.06566
G1 X132.172 Y97.535 E.06566
G1 X133.705 Y96.375 E.06508
G1 X135.498 Y95.679 E.06508
G1 X137.426 Y95.465 E.06566
G1 X139.347 Y95.734 E.06566
G1 X141.118 Y96.481 E.06508
G1 X142.617 Y97.685 E.06508
G1 X143.766 Y99.249 E.06566
G1 X144.494 Y101.047 E.06566
G1 X144.733 Y102.954 E.06508
G1 X144.439 Y104.855 E.06508
G1 X143.66 Y106.631 E.06566
G1 X142.467 Y108.16 E.06566
G1 X140.934 Y109.321 E.06508
G1 X139.141 Y110.017 E.06508
G1 X137.213 Y110.23 E.06566
G1 X135.292 Y109.962 E.06566
G1 X133.521 Y109.215 E.06508
G1 X132.022 Y108.01 E.06508
G1 X130.873 Y106.447 E.06566
G1 X130.145 Y104.649 E.06566
G1 X129.914 Y102.801 E.06305
M204 S1000
; stop printing object Among_Us.stl id:0 copy 0
;LAYER_CHANGE
;Z:1.4
;HEIGHT:0.2
;BEFORE_LAYER_CHANGE
G92 E0.0
;1.4


;WIPE_START
G1 F8640
G1 X130.2 Y100.841 E-.45731
G1 X130.726 Y99.641 E-.30269
;WIPE_END
G1 E-.04 F2100
G1 Z1.6 F10800
;AFTER_LAYER_CHANGE
;1.4
; printing object Among_Us.stl id:0 copy 0
G1 X119.939 Y100.801
G1 Z1.4
G1 E.8 F2100
M204 S800
G1 F900
G1 X120.238 Y102.738 E.06634
G1 X119.994 Y104.683 E.06634
G1 X119.252 Y106.516 E.06693
G1 X118.08 Y108.109 E.06693
G1 X116.552 Y109.336 E.06634
G1 X114.746 Y110.097 E.06634
G1 X112.788 Y110.37 E.06693
G1 X110.823 Y110.153 E.06693
G1 X108.996 Y109.443 E.06634
G1 X107.434 Y108.259 E.06634
G1 X106.218 Y106.7 E.06693
G1 X105.424 Y104.889 E.06693
G1 X105.125 Y102.952 E.06634
G1 X105.369 Y101.008 E.06634
G1 X106.111 Y99.175 E.06693
G1 X107.283 Y97.582 E.06693
G1 X108.811 Y96.355 E.06634
G1 X110.617 Y95.594 E.06634
G1 X112.575 Y95.32 E.06693
G1 X114.54 Y95.538 E.06693
G1 X116.367 Y96.248 E.06634
G1 X117.929 Y97.431 E.06634
G1 X119.145 Y98.991 E.06693
G1 X119.915 Y100.746 E.06489
M204 S1000
;WIPE_START
G1 F8640
M73 P1 R64
G1 X120.238 Y102.738 E-.46595
G1 X120.079 Y104.002 E-.29405
;WIPE_END
G1 E-.04 F2100
G1 Z1.8 F10800
G1 X129.762 Y102.739
G1 Z1.4
G1 E.8 F2100
M204 S800
G1 F900
G1 X130.061 Y100.802 E.06634
G1 X130.856 Y98.992 E.06693
G1 X132.072 Y97.433 E.06693
G1 X133.634 Y96.25 E.06634
G1 X135.461 Y95.54 E.06634
G1 X137.427 Y95.323 E.06693
G1 X139.385 Y95.597 E.06693
G1 X141.191 Y96.358 E.06634
G1 X142.719 Y97.586 E.06634
G1 X143.889 Y99.179 E.06693
G1 X144.631 Y101.012 E.06693
G1 X144.875 Y102.956 E.06634
G1 X144.576 Y104.893 E.06634
G1 X143.781 Y106.704 E.06693
G1 X142.565 Y108.263 E.06693
G1 X141.003 Y109.446 E.06634
G1 X139.176 Y110.156 E.06634
G1 X137.21 Y110.373 E.06693
G1 X135.252 Y110.099 E.06693
G1 X133.446 Y109.338 E.06634
G1 X131.919 Y108.11 E.06634
G1 X130.748 Y106.517 E.06693
G1 X130.006 Y104.684 E.06693
G1 X129.77 Y102.799 E.06431
M204 S1000
; stop printing object Among_Us.stl id:0 copy 0
;LAYER_CHANGE
;Z:1.6
;HEIGHT:0.2
;BEFORE_LAYER_CHANGE
G92 E0.0
;1.6


;WIPE_START
G1 F8640
M73 Q1 S64
G1 X130.061 Y100.802 E-.46589
G1 X130.573 Y99.636 E-.29411
;WIPE_END
G1 E-.04 F2100
G1 Z1.8 F10800
;AFTER_LAYER_CHANGE
;1.6
; printing object Among_Us.stl id:0 copy 0
G1 X120.049 Y100.771
G1 Z1.6
G1 E.8 F2100
M204 S800
G1 F900
G1 X120.353 Y102.737 E.06734
G1 X120.105 Y104.711 E.06734
G1 X119.351 Y106.571 E.06793
G1 X118.163 Y108.188 E.06793
G1 X116.611 Y109.434 E.06734
G1 X114.778 Y110.206 E.06734
G1 X112.79 Y110.484 E.06793
G1 X110.796 Y110.263 E.06793
G1 X108.941 Y109.542 E.06734
G1 X107.355 Y108.341 E.06734
G1 X106.121 Y106.758 E.06793
G1 X105.315 Y104.92 E.06793
G1 X105.012 Y102.954 E.06734
G1 X105.26 Y100.98 E.06734
G1 X106.013 Y99.12 E.06793
G1 X107.202 Y97.503 E.06793
G1 X108.753 Y96.257 E.06734
G1 X110.587 Y95.484 E.06734
G1 X112.574 Y95.207 E.06793
G1 X114.569 Y95.428 E.06793
G1 X116.423 Y96.149 E.06734
G1 X118.009 Y97.35 E.06734
G1 X119.243 Y98.933 E.06793
G1 X120.025 Y100.716 E.0659
M204 S1000
;WIPE_START
G1 F8640
G1 X120.353 Y102.737 E-.47278
G1 X120.198 Y103.971 E-.28722
;WIPE_END
G1 E-.04 F2100
G1 Z2 F10800
G1 X129.647 Y102.738
G1 Z1.6
G1 E.8 F2100
M204 S800
G1 F900
G1 X129.951 Y100.772 E.06734
G1 X130.757 Y98.934 E.06793
G1 X131.992 Y97.351 E.06793
G1 X133.578 Y96.15 E.06734
G1 X135.433 Y95.43 E.06734
G1 X137.427 Y95.21 E.06793
G1 X139.415 Y95.487 E.06793
G1 X141.248 Y96.26 E.06734
G1 X142.799 Y97.507 E.06734
G1 X143.988 Y99.124 E.06793
G1 X144.741 Y100.984 E.06793
G1 X144.988 Y102.958 E.06734
G1 X144.684 Y104.924 E.06734
G1 X143.878 Y106.762 E.06793
G1 X142.644 Y108.345 E.06793
G1 X141.057 Y109.546 E.06734
G1 X139.203 Y110.266 E.06734
G1 X137.208 Y110.486 E.06793
G1 X135.22 Y110.209 E.06793
G1 X133.387 Y109.436 E.06734
G1 X131.836 Y108.189 E.06734
G1 X130.648 Y106.572 E.06793
G1 X129.895 Y104.712 E.06793
G1 X129.655 Y102.797 E.06531
M204 S1000
; stop printing object Among_Us.stl id:0 copy 0
;LAYER_CHANGE
;Z:1.8
;HEIGHT:0.2
;BEFORE_LAYER_CHANGE
G92 E0.0
;1.8


;WIPE_START
G1 F8640
G1 X129.951 Y100.772 E-.47272
G1 X130.451 Y99.632 E-.28728
;WIPE_END
G1 E-.04 F2100
G1 Z2 F10800
;AFTER_LAYER_CHANGE
;1.8
; printing object Among_Us.stl id:0 copy 0
G1 X120.16 Y100.74
G1 Z1.8
G1 E.8 F2100
M204 S800
G1 F900
G1 X120.467 Y102.735 E.06834
G1 X120.216 Y104.739 E.06834
G1 X119.451 Y106.627 E.06894
G1 X118.245 Y108.268 E.06894
G1 X116.671 Y109.532 E.06834
G1 X114.81 Y110.316 E.06834
G1 X112.793 Y110.597 E.06894
G1 X110.768 Y110.373 E.06894
G1 X108.886 Y109.642 E.06834
G1 X107.277 Y108.423 E.06834
G1 X106.025 Y106.816 E.06894
G1 X105.207 Y104.951 E.06894
G1 X104.899 Y102.956 E.06834
G1 X105.15 Y100.952 E.06834
G1 X105.915 Y99.064 E.06894
G1 X107.122 Y97.424 E.06894
G1 X108.696 Y96.159 E.06834
G1 X110.556 Y95.375 E.06834
G1 X112.574 Y95.094 E.06894
G1 X114.598 Y95.318 E.06894
G1 X116.48 Y96.049 E.06834
G1 X118.089 Y97.268 E.06834
G1 X119.342 Y98.875 E.06894
G1 X120.135 Y100.685 E.06691
M204 S1000
;WIPE_START
G1 F8640
G1 X120.467 Y102.735 E-.47961
G1 X120.316 Y103.94 E-.28039
;WIPE_END
G1 E-.04 F2100
G1 Z2.2 F10800
G1 X129.533 Y102.736
G1 Z1.8
G1 E.8 F2100
M204 S800
G1 F900
G1 X129.841 Y100.741 E.06834
G1 X130.659 Y98.876 E.06894
G1 X131.912 Y97.27 E.06894
G1 X133.521 Y96.051 E.06834
G1 X135.404 Y95.32 E.06834
G1 X137.428 Y95.096 E.06894
G1 X139.445 Y95.378 E.06894
G1 X141.306 Y96.163 E.06834
G1 X142.88 Y97.427 E.06834
G1 X144.086 Y99.068 E.06894
G1 X144.85 Y100.956 E.06894
G1 X145.101 Y102.96 E.06834
G1 X144.793 Y104.955 E.06834
G1 X143.975 Y106.82 E.06894
G1 X142.722 Y108.426 E.06894
M73 Q2 S64
G1 X141.112 Y109.645 E.06834
G1 X139.23 Y110.376 E.06834
G1 X137.206 Y110.6 E.06894
G1 X135.189 Y110.318 E.06894
M73 P2 R64
G1 X133.328 Y109.533 E.06834
G1 X131.754 Y108.269 E.06834
G1 X130.548 Y106.628 E.06894
G1 X129.784 Y104.74 E.06894
G1 X129.54 Y102.796 E.06631
M204 S1000
; stop printing object Among_Us.stl id:0 copy 0
;LAYER_CHANGE
;Z:2
;HEIGHT:0.2
;BEFORE_LAYER_CHANGE
G92 E0.0
;2


;WIPE_START
G1 F8640
G1 X129.841 Y100.741 E-.47955
G1 X130.329 Y99.629 E-.28045
;WIPE_END
G1 E-.04 F2100
G1 Z2.2 F10800
;AFTER_LAYER_CHANGE
;2
; printing object Among_Us.stl id:0 copy 0
G1 X120.27 Y100.709
G1 Z2
G1 E.8 F2100
M204 S800
G1 F900
G1 X120.582 Y102.734 E.06934
G1 X120.327 Y104.767 E.06934
G1 X119.551 Y106.682 E.06995
G1 X118.327 Y108.347 E.06995
G1 X116.73 Y109.63 E.06934
G1 X114.842 Y110.425 E.06934
G1 X112.795 Y110.711 E.06995
G1 X110.741 Y110.483 E.06995
G1 X108.832 Y109.741 E.06934
G1 X107.199 Y108.504 E.06934
G1 X105.928 Y106.874 E.06995
G1 X105.098 Y104.982 E.06995
G1 X104.786 Y102.957 E.06934
G1 X105.041 Y100.924 E.06934
G1 X105.817 Y99.009 E.06995
G1 X107.041 Y97.344 E.06995
G1 X108.638 Y96.061 E.06934
G1 X110.526 Y95.266 E.06934
G1 X112.573 Y94.98 E.06995
G1 X114.627 Y95.208 E.06995
G1 X116.536 Y95.95 E.06934
G1 X118.169 Y97.187 E.06934
G1 X119.44 Y98.817 E.06995
G1 X120.246 Y100.654 E.06792
M204 S1000
;WIPE_START
G1 F8640
G1 X120.582 Y102.734 E-.48644
G1 X120.435 Y103.91 E-.27356
;WIPE_END
G1 E-.04 F2100
G1 Z2.4 F10800
G1 X129.418 Y102.735
G1 Z2
G1 E.8 F2100
M204 S800
G1 F900
G1 X129.731 Y100.71 E.06934
G1 X130.561 Y98.818 E.06995
G1 X131.832 Y97.188 E.06995
G1 X133.465 Y95.952 E.06934
G1 X135.375 Y95.21 E.06934
G1 X137.429 Y94.983 E.06995
G1 X139.475 Y95.269 E.06995
G1 X141.363 Y96.065 E.06934
G1 X142.96 Y97.348 E.06934
G1 X144.184 Y99.013 E.06995
G1 X144.96 Y100.929 E.06995
G1 X145.214 Y102.961 E.06934
G1 X144.901 Y104.986 E.06934
G1 X144.071 Y106.878 E.06995
G1 X142.8 Y108.508 E.06995
G1 X141.167 Y109.745 E.06934
G1 X139.257 Y110.486 E.06934
G1 X137.203 Y110.714 E.06995
G1 X135.157 Y110.427 E.06995
G1 X133.269 Y109.631 E.06934
G1 X131.672 Y108.348 E.06934
G1 X130.448 Y106.683 E.06995
G1 X129.672 Y104.768 E.06995
G1 X129.425 Y102.794 E.06731
M204 S1000
; stop printing object Among_Us.stl id:0 copy 0
;LAYER_CHANGE
;Z:2.2
;HEIGHT:0.2
;BEFORE_LAYER_CHANGE
G92 E0.0
;2.2


;WIPE_START
G1 F8640
G1 X129.731 Y100.71 E-.48638
G1 X130.207 Y99.625 E-.27362
;WIPE_END
G1 E-.04 F2100
G1 Z2.4 F10800
;AFTER_LAYER_CHANGE
;2.2
; printing object Among_Us.stl id:0 copy 0
G1 X120.354 Y100.686
G1 Z2.2
G1 E.8 F2100
M204 S800
G1 F900
G1 X120.67 Y102.733 E.07011
G1 X120.412 Y104.788 E.07011
G1 X119.628 Y106.725 E.07072
G1 X118.39 Y108.408 E.07072
G1 X116.775 Y109.705 E.07011
G1 X114.866 Y110.509 E.07011
G1 X112.797 Y110.798 E.07072
G1 X110.72 Y110.568 E.07072
G1 X108.79 Y109.817 E.07011
G1 X107.139 Y108.567 E.07011
G1 X105.854 Y106.919 E.07072
G1 X105.015 Y105.005 E.07072
G1 X104.699 Y102.958 E.07011
G1 X104.957 Y100.903 E.07011
G1 X105.742 Y98.967 E.07072
G1 X106.98 Y97.283 E.07072
G1 X108.595 Y95.986 E.07011
G1 X110.503 Y95.182 E.07011
G1 X112.573 Y94.893 E.07072
G1 X114.649 Y95.124 E.07072
G1 X116.58 Y95.874 E.07011
G1 X118.231 Y97.125 E.07011
G1 X119.516 Y98.772 E.07072
G1 X120.33 Y100.631 E.06869
M204 S1000
;WIPE_START
G1 F8640
G1 X120.67 Y102.733 E-.49167
G1 X120.526 Y103.886 E-.26833
;WIPE_END
G1 E-.04 F2100
G1 Z2.6 F10800
G1 X129.33 Y102.734
G1 Z2.2
G1 E.8 F2100
M204 S800
G1 F900
G1 X129.646 Y100.687 E.07011
G1 X130.485 Y98.773 E.07072
G1 X131.77 Y97.126 E.07072
G1 X133.422 Y95.875 E.07011
G1 X135.352 Y95.126 E.07011
G1 X137.429 Y94.896 E.07072
G1 X139.498 Y95.185 E.07072
G1 X141.407 Y95.99 E.07011
G1 X143.022 Y97.287 E.07011
G1 X144.259 Y98.971 E.07072
G1 X145.043 Y100.907 E.07072
G1 X145.3 Y102.963 E.07011
G1 X144.984 Y105.01 E.07011
G1 X144.145 Y106.923 E.07072
G1 X142.86 Y108.57 E.07072
G1 X141.209 Y109.821 E.07011
G1 X139.278 Y110.571 E.07011
G1 X137.201 Y110.8 E.07072
G1 X135.132 Y110.511 E.07072
G1 X133.223 Y109.706 E.07011
G1 X131.609 Y108.409 E.07011
G1 X130.371 Y106.726 E.07072
G1 X129.587 Y104.789 E.07072
G1 X129.337 Y102.793 E.06808
M204 S1000
; stop printing object Among_Us.stl id:0 copy 0
;LAYER_CHANGE
;Z:2.4
;HEIGHT:0.2
;BEFORE_LAYER_CHANGE
G92 E0.0
;2.4


;WIPE_START
G1 F8640
G1 X129.646 Y100.687 E-.49161
G1 X130.113 Y99.622 E-.26839
;WIPE_END
G1 E-.04 F2100
G1 Z2.6 F10800
;AFTER_LAYER_CHANGE
;2.4
; printing object Among_Us.stl id:0 copy 0
G1 X120.416 Y100.669
G1 Z2.4
G1 E.8 F2100
M204 S800
G1 F900
G1 X120.734 Y102.732 E.07066
G1 X120.474 Y104.803 E.07066
G1 X119.683 Y106.755 E.07128
G1 X118.436 Y108.452 E.07128
G1 X116.808 Y109.759 E.07066
G1 X114.884 Y110.569 E.07066
G1 X112.799 Y110.86 E.07128
G1 X110.706 Y110.628 E.07128
G1 X108.76 Y109.872 E.07066
G1 X107.096 Y108.612 E.07066
G1 X105.801 Y106.951 E.07128
G1 X104.956 Y105.022 E.07128
G1 X104.637 Y102.959 E.07066
G1 X104.897 Y100.888 E.07066
G1 X105.688 Y98.936 E.07128
G1 X106.935 Y97.24 E.07128
G1 X108.563 Y95.933 E.07066
G1 X110.487 Y95.122 E.07066
G1 X112.572 Y94.831 E.07128
G1 X114.665 Y95.063 E.07128
G1 X116.611 Y95.819 E.07066
G1 X118.275 Y97.08 E.07066
G1 X119.57 Y98.74 E.07128
G1 X120.391 Y100.614 E.06925
M204 S1000
;WIPE_START
G1 F8640
G1 X120.734 Y102.732 E-.49543
G1 X120.591 Y103.869 E-.26457
;WIPE_END
G1 E-.04 F2100
G1 Z2.8 F10800
G1 X129.266 Y102.733
G1 Z2.4
G1 E.8 F2100
M204 S800
G1 F900
G1 X129.585 Y100.67 E.07066
G1 X130.431 Y98.741 E.07128
G1 X131.726 Y97.081 E.07128
G1 X133.39 Y95.821 E.07066
G1 X135.336 Y95.065 E.07066
G1 X137.429 Y94.833 E.07128
G1 X139.515 Y95.125 E.07128
G1 X141.438 Y95.936 E.07066
G1 X143.066 Y97.243 E.07066
G1 X144.313 Y98.94 E.07128
G1 X145.103 Y100.892 E.07128
G1 X145.362 Y102.963 E.07066
G1 X145.044 Y105.027 E.07066
G1 X144.198 Y106.955 E.07128
G1 X142.903 Y108.615 E.07128
G1 X141.239 Y109.876 E.07066
G1 X139.293 Y110.631 E.07066
G1 X137.2 Y110.863 E.07128
G1 X135.114 Y110.571 E.07128
G1 X133.191 Y109.76 E.07066
G1 X131.563 Y108.453 E.07066
G1 X130.316 Y106.756 E.07128
G1 X129.526 Y104.804 E.07128
G1 X129.274 Y102.792 E.06863
M204 S1000
; stop printing object Among_Us.stl id:0 copy 0
;LAYER_CHANGE
;Z:2.6
;HEIGHT:0.2
;BEFORE_LAYER_CHANGE
G92 E0.0
;2.6


;WIPE_START
G1 F8640
G1 X129.585 Y100.67 E-.49537
G1 X130.045 Y99.62 E-.26463
;WIPE_END
G1 E-.04 F2100
G1 Z2.8 F10800
;AFTER_LAYER_CHANGE
;2.6
; printing object Among_Us.stl id:0 copy 0
G1 X120.477 Y100.652
G1 Z2.6
G1 E.8 F2100
M204 S800
G1 F900
G1 X120.797 Y102.731 E.07121
G1 X120.535 Y104.819 E.07121
G1 X119.739 Y106.786 E.07183
G1 X118.481 Y108.495 E.07183
G1 X116.841 Y109.813 E.07121
G1 X114.902 Y110.63 E.07121
G1 X112.8 Y110.923 E.07183
G1 X110.691 Y110.689 E.07183
G1 X108.73 Y109.927 E.07121
G1 X107.053 Y108.657 E.07121
G1 X105.748 Y106.983 E.07183
G1 X104.896 Y105.039 E.07183
G1 X104.575 Y102.96 E.07121
G1 X104.837 Y100.873 E.07121
G1 X105.634 Y98.906 E.07183
G1 X106.891 Y97.196 E.07183
G1 X108.532 Y95.879 E.07121
G1 X110.471 Y95.062 E.07121
G1 X112.572 Y94.768 E.07183
G1 X114.682 Y95.002 E.07183
G1 X116.643 Y95.764 E.07121
G1 X118.32 Y97.035 E.07121
G1 X119.625 Y98.708 E.07183
G1 X120.453 Y100.597 E.0698
M204 S1000
;WIPE_START
G1 F8640
G1 X120.797 Y102.731 E-.4992
G1 X120.657 Y103.852 E-.2608
;WIPE_END
G1 E-.04 F2100
G1 Z3 F10800
G1 X129.203 Y102.732
G1 Z2.6
G1 E.8 F2100
M204 S800
G1 F900
G1 X129.524 Y100.653 E.07121
G1 X130.376 Y98.709 E.07183
G1 X131.682 Y97.036 E.07183
G1 X133.359 Y95.766 E.07121
G1 X135.32 Y95.004 E.07121
G1 X137.429 Y94.771 E.07183
G1 X139.531 Y95.065 E.07183
G1 X141.47 Y95.882 E.07121
G1 X143.11 Y97.2 E.07121
G1 X144.367 Y98.91 E.07183
G1 X145.163 Y100.877 E.07183
G1 X145.424 Y102.964 E.07121
G1 X145.103 Y105.044 E.07121
G1 X144.251 Y106.987 E.07183
G1 X142.946 Y108.66 E.07183
G1 X141.268 Y109.93 E.07121
G1 X139.307 Y110.692 E.07121
G1 X137.198 Y110.926 E.07183
G1 X135.096 Y110.632 E.07183
G1 X133.158 Y109.814 E.07121
G1 X131.517 Y108.497 E.07121
G1 X130.261 Y106.787 E.07183
G1 X129.464 Y104.82 E.07183
G1 X129.21 Y102.792 E.06918
M204 S1000
; stop printing object Among_Us.stl id:0 copy 0
;LAYER_CHANGE
;Z:2.8
;HEIGHT:0.2
;BEFORE_LAYER_CHANGE
G92 E0.0
;2.8


;WIPE_START
G1 F8640
G1 X129.524 Y100.653 E-.49913
G1 X129.978 Y99.618 E-.26087
;WIPE_END
G1 E-.04 F2100
G1 Z3 F10800
;AFTER_LAYER_CHANGE
;2.8
; printing object Among_Us.stl id:0 copy 0
G1 X120.538 Y100.635
G1 Z2.8
G1 E.8 F2100
M204 S800
G1 F900
G1 X120.861 Y102.73 E.07177
G1 X120.597 Y104.834 E.07177
G1 X119.794 Y106.816 E.07239
G1 X118.527 Y108.539 E.07239
G1 X116.874 Y109.867 E.07177
G1 X114.92 Y110.69 E.07177
G1 X112.802 Y110.986 E.07239
G1 X110.676 Y110.75 E.07239
G1 X108.7 Y109.982 E.07177
G1 X107.01 Y108.702 E.07177
G1 X105.695 Y107.015 E.07239
G1 X104.837 Y105.056 E.07239
G1 X104.513 Y102.961 E.07177
G1 X104.777 Y100.857 E.07177
G1 X105.58 Y98.875 E.07239
G1 X106.847 Y97.152 E.07239
G1 X108.5 Y95.825 E.07177
G1 X110.454 Y95.001 E.07177
G1 X112.572 Y94.706 E.07239
G1 X114.698 Y94.942 E.07239
G1 X116.674 Y95.709 E.07177
G1 X118.364 Y96.99 E.07177
G1 X119.679 Y98.676 E.07239
G1 X120.514 Y100.58 E.07036
M204 S1000
;WIPE_START
G1 F8640
G1 X120.861 Y102.73 E-.50296
G1 X120.722 Y103.835 E-.25704
;WIPE_END
G1 E-.04 F2100
G1 Z3.2 F10800
G1 X129.139 Y102.731
G1 Z2.8
G1 E.8 F2100
M204 S800
G1 F900
G1 X129.463 Y100.636 E.07177
G1 X130.322 Y98.677 E.07239
G1 X131.637 Y96.991 E.07239
G1 X133.327 Y95.711 E.07177
G1 X135.304 Y94.944 E.07177
G1 X137.429 Y94.708 E.07239
G1 X139.547 Y95.004 E.07239
G1 X141.501 Y95.828 E.07177
G1 X143.154 Y97.156 E.07177
G1 X144.42 Y98.879 E.07239
G1 X145.223 Y100.862 E.07239
G1 X145.486 Y102.965 E.07177
G1 X145.163 Y105.061 E.07177
G1 X144.304 Y107.019 E.07239
G1 X142.989 Y108.705 E.07239
G1 X141.298 Y109.985 E.07177
G1 X139.322 Y110.753 E.07177
G1 X137.196 Y110.988 E.07239
G1 X135.078 Y110.692 E.07239
G1 X133.125 Y109.868 E.07177
G1 X131.472 Y108.54 E.07177
G1 X130.205 Y106.817 E.07239
G1 X129.403 Y104.835 E.07239
G1 X129.147 Y102.791 E.06974
M204 S1000
; stop printing object Among_Us.stl id:0 copy 0
;LAYER_CHANGE
;Z:3
;HEIGHT:0.2
;BEFORE_LAYER_CHANGE
G92 E0.0
;3


;WIPE_START
G1 F8640
M73 Q3 S64
G1 X129.463 Y100.636 E-.5029
G1 X129.91 Y99.616 E-.2571
;WIPE_END
G1 E-.04 F2100
G1 Z3.2 F10800
;AFTER_LAYER_CHANGE
;3
; printing object Among_Us.stl id:0 copy 0
G1 X120.599 Y100.618
G1 Z3
G1 E.8 F2100
M204 S800
G1 F900
G1 X120.924 Y102.73 E.07232
G1 X120.659 Y104.849 E.07232
M73 P3 R64
G1 X119.849 Y106.847 E.07294
G1 X118.573 Y108.583 E.07294
G1 X116.907 Y109.921 E.07232
G1 X114.938 Y110.75 E.07232
G1 X112.804 Y111.048 E.07294
G1 X110.662 Y110.811 E.07294
G1 X108.67 Y110.037 E.07232
G1 X106.967 Y108.747 E.07232
G1 X105.642 Y107.047 E.07294
G1 X104.777 Y105.073 E.07294
G1 X104.451 Y102.962 E.07232
G1 X104.717 Y100.842 E.07232
G1 X105.527 Y98.845 E.07294
G1 X106.803 Y97.109 E.07294
G1 X108.469 Y95.771 E.07232
G1 X110.438 Y94.941 E.07232
G1 X112.572 Y94.643 E.07294
G1 X114.714 Y94.881 E.07294
M73 P3 R63
G1 X116.706 Y95.655 E.07232
G1 X118.408 Y96.945 E.07232
G1 X119.734 Y98.644 E.07294
G1 X120.575 Y100.563 E.07091
M204 S1000
;WIPE_START
G1 F8640
G1 X120.924 Y102.73 E-.50673
G1 X120.788 Y103.818 E-.25327
;WIPE_END
G1 E-.04 F2100
G1 Z3.4 F10800
G1 X129.076 Y102.73
G1 Z3
G1 E.8 F2100
M204 S800
G1 F900
G1 X129.402 Y100.619 E.07232
G1 X130.267 Y98.645 E.07294
G1 X131.593 Y96.946 E.07294
G1 X133.296 Y95.656 E.07232
G1 X135.288 Y94.883 E.07232
G1 X137.43 Y94.646 E.07294
G1 X139.564 Y94.944 E.07294
G1 X141.532 Y95.774 E.07232
G1 X143.198 Y97.112 E.07232
G1 X144.474 Y98.849 E.07294
G1 X145.283 Y100.846 E.07294
G1 X145.548 Y102.966 E.07232
G1 X145.222 Y105.078 E.07232
G1 X144.357 Y107.051 E.07294
G1 X143.031 Y108.75 E.07294
G1 X141.328 Y110.04 E.07232
G1 X139.337 Y110.814 E.07232
M73 Q3 S63
G1 X137.195 Y111.051 E.07294
G1 X135.06 Y110.752 E.07294
G1 X133.092 Y109.922 E.07232
G1 X131.426 Y108.584 E.07232
G1 X130.15 Y106.848 E.07294
G1 X129.341 Y104.85 E.07294
G1 X129.083 Y102.79 E.07029
M204 S1000
; stop printing object Among_Us.stl id:0 copy 0
;LAYER_CHANGE
;Z:3.2
;HEIGHT:0.2
;BEFORE_LAYER_CHANGE
G92 E0.0
;3.2


;WIPE_START
G1 F8640
G1 X129.402 Y100.619 E-.50666
G1 X129.842 Y99.614 E-.25334
;WIPE_END
G1 E-.04 F2100
G1 Z3.4 F10800
;AFTER_LAYER_CHANGE
;3.2
; printing object Among_Us.stl id:0 copy 0
G1 X120.66 Y100.601
G1 Z3.2
G1 E.8 F2100
M204 S800
G1 F900
G1 X120.988 Y102.729 E.07287
G1 X120.72 Y104.865 E.07287
G1 X119.905 Y106.877 E.0735
G1 X118.618 Y108.627 E.0735
G1 X116.94 Y109.975 E.07287
G1 X114.956 Y110.811 E.07287
G1 X112.805 Y111.111 E.0735
G1 X110.647 Y110.871 E.0735
G1 X108.641 Y110.092 E.07287
G1 X106.925 Y108.792 E.07287
G1 X105.589 Y107.079 E.0735
G1 X104.718 Y105.09 E.0735
G1 X104.389 Y102.963 E.07287
G1 X104.657 Y100.827 E.07287
G1 X105.473 Y98.814 E.0735
G1 X106.759 Y97.065 E.0735
G1 X108.438 Y95.717 E.07287
G1 X110.422 Y94.881 E.07287
G1 X112.572 Y94.581 E.0735
G1 X114.73 Y94.82 E.0735
G1 X116.737 Y95.6 E.07287
G1 X118.453 Y96.9 E.07287
G1 X119.788 Y98.612 E.0735
G1 X120.636 Y100.546 E.07147
M204 S1000
;WIPE_START
G1 F8640
G1 X120.988 Y102.729 E-.51049
G1 X120.853 Y103.801 E-.24951
;WIPE_END
G1 E-.04 F2100
G1 Z3.6 F10800
G1 X129.012 Y102.729
G1 Z3.2
G1 E.8 F2100
M204 S800
G1 F900
G1 X129.341 Y100.602 E.07287
G1 X130.213 Y98.613 E.0735
G1 X131.548 Y96.901 E.0735
G1 X133.265 Y95.602 E.07287
G1 X135.271 Y94.822 E.07287
G1 X137.43 Y94.583 E.0735
G1 X139.58 Y94.884 E.0735
G1 X141.564 Y95.72 E.07287
G1 X143.242 Y97.069 E.07287
G1 X144.528 Y98.818 E.0735
G1 X145.343 Y100.831 E.0735
G1 X145.61 Y102.967 E.07287
G1 X145.282 Y105.095 E.07287
G1 X144.41 Y107.083 E.0735
G1 X143.074 Y108.795 E.0735
G1 X141.358 Y110.095 E.07287
G1 X139.351 Y110.874 E.07287
G1 X137.193 Y111.113 E.0735
G1 X135.042 Y110.813 E.0735
G1 X133.059 Y109.976 E.07287
G1 X131.38 Y108.628 E.07287
G1 X130.094 Y106.878 E.0735
G1 X129.28 Y104.866 E.0735
G1 X129.02 Y102.789 E.07084
M204 S1000
; stop printing object Among_Us.stl id:0 copy 0
;LAYER_CHANGE
;Z:3.4
;HEIGHT:0.2
;BEFORE_LAYER_CHANGE
G92 E0.0
;3.4


;WIPE_START
G1 F8640
G1 X129.341 Y100.602 E-.51042
G1 X129.775 Y99.612 E-.24958
;WIPE_END
G1 E-.04 F2100
G1 Z3.6 F10800
;AFTER_LAYER_CHANGE
;3.4
; printing object Among_Us.stl id:0 copy 0
G1 X120.701 Y100.59
G1 Z3.4
G1 E.8 F2100
M204 S800
G1 F900
G1 X121.03 Y102.728 E.07324
G1 X120.761 Y104.875 E.07324
G1 X119.942 Y106.897 E.07387
G1 X118.649 Y108.656 E.07387
G1 X116.962 Y110.01 E.07324
G1 X114.968 Y110.851 E.07324
G1 X112.807 Y111.152 E.07387
G1 X110.638 Y110.912 E.07387
G1 X108.621 Y110.128 E.07324
G1 X106.896 Y108.821 E.07324
G1 X105.554 Y107.1 E.07387
G1 X104.678 Y105.102 E.07387
G1 X104.349 Y102.963 E.07324
G1 X104.618 Y100.817 E.07324
G1 X105.437 Y98.794 E.07387
G1 X106.73 Y97.036 E.07387
G1 X108.417 Y95.681 E.07324
G1 X110.411 Y94.841 E.07324
G1 X112.572 Y94.539 E.07387
G1 X114.741 Y94.78 E.07387
G1 X116.758 Y95.563 E.07324
G1 X118.483 Y96.87 E.07324
G1 X119.825 Y98.591 E.07387
G1 X120.677 Y100.535 E.07184
M204 S1000
;WIPE_START
G1 F8640
G1 X121.03 Y102.728 E-.51299
G1 X120.897 Y103.79 E-.24701
;WIPE_END
G1 E-.04 F2100
G1 Z3.8 F10800
G1 X128.97 Y102.729
G1 Z3.4
G1 E.8 F2100
M204 S800
G1 F900
G1 X129.3 Y100.591 E.07324
G1 X130.176 Y98.592 E.07387
G1 X131.519 Y96.871 E.07387
G1 X133.243 Y95.565 E.07324
G1 X135.26 Y94.782 E.07324
G1 X137.429 Y94.542 E.07387
G1 X139.591 Y94.844 E.07387
G1 X141.584 Y95.685 E.07324
G1 X143.271 Y97.04 E.07324
G1 X144.564 Y98.798 E.07387
G1 X145.383 Y100.821 E.07387
G1 X145.651 Y102.968 E.07324
G1 X145.321 Y105.106 E.07324
G1 X144.445 Y107.105 E.07387
G1 X143.102 Y108.825 E.07387
G1 X141.378 Y110.131 E.07324
G1 X139.361 Y110.915 E.07324
G1 X137.192 Y111.155 E.07387
G1 X135.03 Y110.853 E.07387
G1 X133.037 Y110.012 E.07324
G1 X131.35 Y108.657 E.07324
G1 X130.057 Y106.899 E.07387
G1 X129.238 Y104.876 E.07387
G1 X128.977 Y102.788 E.0712
M204 S1000
; stop printing object Among_Us.stl id:0 copy 0
;LAYER_CHANGE
;Z:3.6
;HEIGHT:0.2
;BEFORE_LAYER_CHANGE
G92 E0.0
;3.6


;WIPE_START
G1 F8640
G1 X129.3 Y100.591 E-.51292
G1 X129.73 Y99.611 E-.24708
;WIPE_END
G1 E-.04 F2100
G1 Z3.8 F10800
;AFTER_LAYER_CHANGE
;3.6
; printing object Among_Us.stl id:0 copy 0
G1 X120.734 Y100.58
G1 Z3.6
G1 E.8 F2100
M204 S800
G1 F900
G1 X121.065 Y102.728 E.07354
G1 X120.795 Y104.883 E.07354
G1 X119.972 Y106.914 E.07417
G1 X118.674 Y108.679 E.07417
G1 X116.98 Y110.04 E.07354
G1 X114.978 Y110.883 E.07354
G1 X112.808 Y111.186 E.07417
G1 X110.63 Y110.945 E.07417
G1 X108.605 Y110.158 E.07354
G1 X106.873 Y108.846 E.07354
G1 X105.526 Y107.118 E.07417
G1 X104.646 Y105.111 E.07417
G1 X104.315 Y102.964 E.07354
G1 X104.586 Y100.808 E.07354
G1 X105.408 Y98.777 E.07417
G1 X106.706 Y97.012 E.07417
G1 X108.4 Y95.652 E.07354
G1 X110.402 Y94.808 E.07354
G1 X112.573 Y94.505 E.07417
G1 X114.75 Y94.747 E.07417
G1 X116.775 Y95.534 E.07354
G1 X118.507 Y96.846 E.07354
G1 X119.854 Y98.574 E.07417
G1 X120.71 Y100.526 E.07214
M204 S1000
;WIPE_START
G1 F8640
G1 X121.065 Y102.728 E-.51504
G1 X120.933 Y103.78 E-.24497
;WIPE_END
G1 E-.04 F2100
G1 Z4 F10800
G1 X128.935 Y102.728
G1 Z3.6
G1 E.8 F2100
M204 S800
G1 F900
G1 X129.266 Y100.581 E.07354
G1 X130.146 Y98.575 E.07417
G1 X131.494 Y96.847 E.07417
G1 X133.226 Y95.535 E.07354
G1 X135.251 Y94.749 E.07354
G1 X137.429 Y94.508 E.07417
G1 X139.599 Y94.811 E.07417
G1 X141.601 Y95.655 E.07354
G1 X143.295 Y97.016 E.07354
G1 X144.593 Y98.781 E.07417
G1 X145.415 Y100.813 E.07417
G1 X145.685 Y102.968 E.07354
G1 X145.353 Y105.115 E.07354
G1 X144.473 Y107.122 E.07417
G1 X143.125 Y108.85 E.07417
G1 X141.393 Y110.161 E.07354
G1 X139.368 Y110.948 E.07354
G1 X137.19 Y111.189 E.07417
G1 X135.02 Y110.885 E.07417
G1 X133.018 Y110.041 E.07354
G1 X131.325 Y108.681 E.07354
G1 X130.027 Y106.915 E.07417
G1 X129.205 Y104.884 E.07417
G1 X128.942 Y102.788 E.0715
M204 S1000
; stop printing object Among_Us.stl id:0 copy 0
;LAYER_CHANGE
;Z:3.8
;HEIGHT:0.2
;BEFORE_LAYER_CHANGE
G92 E0.0
;3.8


;WIPE_START
G1 F8640
G1 X129.266 Y100.581 E-.51497
G1 X129.693 Y99.61 E-.24503
;WIPE_END
G1 E-.04 F2100
G1 Z4 F10800
;AFTER_LAYER_CHANGE
;3.8
; printing object Among_Us.stl id:0 copy 0
G1 X120.768 Y100.571
G1 Z3.8
G1 E.8 F2100
M204 S800
G1 F900
G1 X121.1 Y102.727 E.07384
G1 X120.829 Y104.892 E.07384
G1 X120.003 Y106.931 E.07447
G1 X118.699 Y108.703 E.07447
G1 X116.998 Y110.069 E.07384
G1 X114.988 Y110.916 E.07384
G1 X112.809 Y111.22 E.07447
G1 X110.622 Y110.978 E.07447
G1 X108.589 Y110.188 E.07384
G1 X106.85 Y108.87 E.07384
G1 X105.498 Y107.135 E.07447
G1 X104.614 Y105.12 E.07447
G1 X104.282 Y102.964 E.07384
G1 X104.553 Y100.8 E.07384
G1 X105.379 Y98.761 E.07447
G1 X106.683 Y96.988 E.07447
G1 X108.384 Y95.623 E.07384
G1 X110.394 Y94.775 E.07384
G1 X112.573 Y94.471 E.07447
G1 X114.76 Y94.714 E.07447
G1 X116.793 Y95.504 E.07384
G1 X118.532 Y96.821 E.07384
G1 X119.884 Y98.556 E.07447
G1 X120.744 Y100.516 E.07244
M204 S1000
;WIPE_START
G1 F8640
G1 X121.1 Y102.727 E-.51708
G1 X120.969 Y103.771 E-.24292
;WIPE_END
G1 E-.04 F2100
G1 Z4.2 F10800
G1 X128.9 Y102.728
G1 Z3.8
G1 E.8 F2100
M204 S800
G1 F900
G1 X129.233 Y100.572 E.07384
G1 X130.116 Y98.557 E.07447
G1 X131.47 Y96.822 E.07447
G1 X133.209 Y95.506 E.07384
G1 X135.242 Y94.716 E.07384
G1 X137.429 Y94.474 E.07447
G1 X139.608 Y94.778 E.07447
G1 X141.618 Y95.626 E.07384
G1 X143.318 Y96.992 E.07384
G1 X144.621 Y98.765 E.07447
G1 X145.447 Y100.804 E.07447
G1 X145.718 Y102.969 E.07384
G1 X145.385 Y105.125 E.07384
G1 X144.502 Y107.139 E.07447
G1 X143.148 Y108.874 E.07447
G1 X141.409 Y110.191 E.07384
G1 X139.376 Y110.981 E.07384
G1 X137.189 Y111.223 E.07447
G1 X135.01 Y110.918 E.07447
G1 X133 Y110.071 E.07384
G1 X131.3 Y108.705 E.07384
G1 X129.997 Y106.932 E.07447
G1 X129.171 Y104.892 E.07447
G1 X128.907 Y102.787 E.0718
M204 S1000
; stop printing object Among_Us.stl id:0 copy 0
;LAYER_CHANGE
;Z:4
;HEIGHT:0.2
;BEFORE_LAYER_CHANGE
G92 E0.0
;4


;WIPE_START
G1 F8640
G1 X129.233 Y100.572 E-.51702
G1 X129.655 Y99.608 E-.24298
;WIPE_END
M73 Q4 S63
G1 E-.04 F2100
G1 Z4.2 F10800
;AFTER_LAYER_CHANGE
;4
; printing object Among_Us.stl id:0 copy 0
G1 X120.801 Y100.562
G1 Z4
G1 E.8 F2100
M204 S800
G1 F900
G1 X121.135 Y102.727 E.07414
G1 X120.863 Y104.9 E.07414
G1 X120.033 Y106.947 E.07478
M73 P4 R63
G1 X118.724 Y108.727 E.07478
G1 X117.017 Y110.098 E.07414
G1 X114.998 Y110.949 E.07414
G1 X112.81 Y111.254 E.07478
G1 X110.615 Y111.011 E.07477
G1 X108.573 Y110.218 E.07414
G1 X106.827 Y108.895 E.07414
G1 X105.469 Y107.153 E.07478
G1 X104.582 Y105.13 E.07478
G1 X104.248 Y102.965 E.07414
G1 X104.521 Y100.792 E.07414
G1 X105.35 Y98.744 E.07478
G1 X106.659 Y96.965 E.07478
G1 X108.367 Y95.593 E.07414
G1 X110.385 Y94.743 E.07414
G1 X112.573 Y94.437 E.07478
G1 X114.769 Y94.681 E.07478
G1 X116.81 Y95.474 E.07414
G1 X118.556 Y96.797 E.07414
G1 X119.914 Y98.539 E.07478
G1 X120.777 Y100.507 E.07274
M204 S1000
;WIPE_START
G1 F8640
G1 X121.135 Y102.727 E-.51913
G1 X121.005 Y103.762 E-.24087
;WIPE_END
G1 E-.04 F2100
G1 Z4.4 F10800
G1 X128.865 Y102.727
G1 Z4
G1 E.8 F2100
M204 S800
G1 F900
G1 X129.199 Y100.563 E.07414
G1 X130.087 Y98.54 E.07478
G1 X131.445 Y96.798 E.07478
G1 X133.191 Y95.476 E.07414
G1 X135.233 Y94.683 E.07414
G1 X137.429 Y94.44 E.07478
G1 X139.616 Y94.746 E.07478
G1 X141.635 Y95.597 E.07414
G1 X143.342 Y96.968 E.07414
G1 X144.65 Y98.748 E.07478
G1 X145.479 Y100.796 E.07478
G1 X145.752 Y102.969 E.07414
G1 X145.417 Y105.134 E.07414
G1 X144.53 Y107.157 E.07478
G1 X143.171 Y108.899 E.07478
G1 X141.425 Y110.221 E.07414
G1 X139.384 Y111.014 E.07414
G1 X137.188 Y111.257 E.07478
G1 X135 Y110.951 E.07478
G1 X132.982 Y110.1 E.07414
G1 X131.274 Y108.728 E.07414
G1 X129.966 Y106.948 E.07478
G1 X129.137 Y104.901 E.07478
G1 X128.872 Y102.787 E.07211
M204 S1000
; stop printing object Among_Us.stl id:0 copy 0
;LAYER_CHANGE
;Z:4.2
;HEIGHT:0.2
;BEFORE_LAYER_CHANGE
G92 E0.0
;4.2


;WIPE_START
G1 F8640
G1 X129.199 Y100.563 E-.51906
G1 X129.618 Y99.607 E-.24094
;WIPE_END
G1 E-.04 F2100
G1 Z4.4 F10800
;AFTER_LAYER_CHANGE
;4.2
; printing object Among_Us.stl id:0 copy 0
G1 X120.835 Y100.553
G1 Z4.2
G1 E.8 F2100
M204 S800
G1 F900
G1 X121.17 Y102.726 E.07444
G1 X120.896 Y104.908 E.07444
G1 X120.063 Y106.964 E.07508
G1 X118.75 Y108.751 E.07508
G1 X117.035 Y110.128 E.07444
G1 X115.008 Y110.982 E.07444
G1 X112.812 Y111.288 E.07508
G1 X110.607 Y111.044 E.07508
G1 X108.557 Y110.247 E.07444
G1 X106.805 Y108.919 E.07444
G1 X105.441 Y107.17 E.07508
G1 X104.55 Y105.139 E.07508
G1 X104.215 Y102.965 E.07444
G1 X104.489 Y100.783 E.07444
G1 X105.322 Y98.728 E.07508
G1 X106.635 Y96.941 E.07508
G1 X108.35 Y95.564 E.07444
G1 X110.377 Y94.71 E.07444
G1 X112.573 Y94.403 E.07508
G1 X114.778 Y94.648 E.07508
G1 X116.828 Y95.444 E.07444
G1 X118.58 Y96.772 E.07444
G1 X119.944 Y98.521 E.07508
G1 X120.811 Y100.498 E.07305
M204 S1000
;WIPE_START
G1 F8640
G1 X121.17 Y102.726 E-.52117
G1 X121.041 Y103.752 E-.23883
;WIPE_END
G1 E-.04 F2100
G1 Z4.6 F10800
G1 X128.83 Y102.727
G1 Z4.2
G1 E.8 F2100
M204 S800
G1 F900
G1 X129.166 Y100.554 E.07444
G1 X130.057 Y98.522 E.07508
G1 X131.421 Y96.774 E.07508
G1 X133.174 Y95.446 E.07444
G1 X135.224 Y94.65 E.07444
G1 X137.428 Y94.406 E.07508
G1 X139.625 Y94.713 E.07508
G1 X141.651 Y95.567 E.07444
G1 X143.366 Y96.945 E.07444
G1 X144.679 Y98.732 E.07508
G1 X145.512 Y100.788 E.07508
G1 X145.785 Y102.97 E.07444
G1 X145.449 Y105.143 E.07444
G1 X144.558 Y107.174 E.07508
G1 X143.194 Y108.923 E.07508
G1 X141.441 Y110.251 E.07444
G1 X139.391 Y111.047 E.07444
G1 X137.187 Y111.291 E.07508
G1 X134.99 Y110.984 E.07508
G1 X132.964 Y110.129 E.07444
G1 X131.249 Y108.752 E.07444
G1 X129.936 Y106.965 E.07508
G1 X129.103 Y104.909 E.07508
G1 X128.837 Y102.787 E.07241
M204 S1000
; stop printing object Among_Us.stl id:0 copy 0
;LAYER_CHANGE
;Z:4.4
;HEIGHT:0.2
;BEFORE_LAYER_CHANGE
G92 E0.0
;4.4


;WIPE_START
G1 F8640
G1 X129.166 Y100.554 E-.52111
G1 X129.581 Y99.606 E-.23889
;WIPE_END
G1 E-.04 F2100
G1 Z4.6 F10800
;AFTER_LAYER_CHANGE
;4.4
; printing object Among_Us.stl id:0 copy 0
G1 X120.868 Y100.544
G1 Z4.4
G1 E.8 F2100
M204 S800
G1 F900
G1 X121.205 Y102.726 E.07474
G1 X120.93 Y104.916 E.07474
G1 X120.094 Y106.98 E.07538
G1 X118.775 Y108.775 E.07538
G1 X117.053 Y110.157 E.07474
G1 X115.018 Y111.015 E.07474
G1 X112.813 Y111.322 E.07538
G1 X110.6 Y111.077 E.07538
G1 X108.541 Y110.277 E.07474
G1 X106.782 Y108.944 E.07474
G1 X105.412 Y107.188 E.07538
G1 X104.518 Y105.148 E.07538
G1 X104.182 Y102.966 E.07474
G1 X104.456 Y100.775 E.07474
G1 X105.293 Y98.711 E.07538
G1 X106.612 Y96.917 E.07538
G1 X108.333 Y95.535 E.07474
G1 X110.368 Y94.677 E.07474
G1 X112.574 Y94.369 E.07538
G1 X114.787 Y94.615 E.07538
G1 X116.845 Y95.414 E.07474
G1 X118.605 Y96.748 E.07474
G1 X119.974 Y98.504 E.07538
G1 X120.844 Y100.489 E.07335
M204 S1000
;WIPE_START
G1 F8640
G1 X121.205 Y102.726 E-.52322
G1 X121.077 Y103.743 E-.23678
;WIPE_END
G1 E-.04 F2100
G1 Z4.8 F10800
G1 X128.795 Y102.726
G1 Z4.4
G1 E.8 F2100
M204 S800
G1 F900
G1 X129.132 Y100.544 E.07474
G1 X130.027 Y98.505 E.07538
G1 X131.396 Y96.749 E.07538
G1 X133.156 Y95.416 E.07474
G1 X135.215 Y94.617 E.07474
G1 X137.428 Y94.372 E.07538
G1 X139.634 Y94.68 E.07538
G1 X141.668 Y95.538 E.07474
G1 X143.389 Y96.921 E.07474
G1 X144.708 Y98.715 E.07538
G1 X145.544 Y100.779 E.07538
G1 X145.818 Y102.97 E.07474
G1 X145.481 Y105.152 E.07474
G1 X144.587 Y107.192 E.07538
G1 X143.217 Y108.948 E.07538
G1 X141.457 Y110.281 E.07474
G1 X139.399 Y111.08 E.07474
G1 X137.185 Y111.325 E.07538
G1 X134.98 Y111.017 E.07538
G1 X132.945 Y110.159 E.07474
G1 X131.224 Y108.776 E.07474
G1 X129.905 Y106.981 E.07538
G1 X129.069 Y104.917 E.07538
G1 X128.803 Y102.786 E.07271
M204 S1000
; stop printing object Among_Us.stl id:0 copy 0
;LAYER_CHANGE
;Z:4.6
;HEIGHT:0.2
;BEFORE_LAYER_CHANGE
G92 E0.0
;4.6


;WIPE_START
M73 P4 R62
G1 F8640
G1 X129.132 Y100.544 E-.52316
G1 X129.544 Y99.605 E-.23684
;WIPE_END
G1 E-.04 F2100
G1 Z4.8 F10800
;AFTER_LAYER_CHANGE
;4.6
; printing object Among_Us.stl id:0 copy 0
G1 X120.902 Y100.534
G1 Z4.6
G1 E.8 F2100
M204 S800
G1 F900
G1 X121.24 Y102.725 E.07504
G1 X120.964 Y104.925 E.07504
G1 X120.124 Y106.997 E.07568
G1 X118.8 Y108.798 E.07568
G1 X117.071 Y110.186 E.07504
G1 X115.029 Y111.047 E.07504
G1 X112.814 Y111.356 E.07568
G1 X110.592 Y111.11 E.07568
G1 X108.526 Y110.307 E.07504
G1 X106.759 Y108.968 E.07504
G1 X105.384 Y107.205 E.07568
G1 X104.486 Y105.157 E.07568
G1 X104.148 Y102.966 E.07504
G1 X104.424 Y100.767 E.07504
G1 X105.264 Y98.695 E.07568
G1 X106.588 Y96.893 E.07568
G1 X108.317 Y95.505 E.07504
G1 X110.359 Y94.644 E.07504
G1 X112.574 Y94.335 E.07568
M73 Q4 S62
G1 X114.796 Y94.582 E.07568
G1 X116.862 Y95.385 E.07504
G1 X118.629 Y96.723 E.07504
G1 X120.004 Y98.487 E.07568
G1 X120.878 Y100.479 E.07365
M204 S1000
;WIPE_START
G1 F8640
G1 X121.24 Y102.725 E-.52527
G1 X121.113 Y103.734 E-.23473
;WIPE_END
G1 E-.04 F2100
G1 Z5 F10800
G1 X128.76 Y102.726
G1 Z4.6
G1 E.8 F2100
M204 S800
G1 F900
G1 X129.099 Y100.535 E.07504
G1 X129.997 Y98.488 E.07568
G1 X131.372 Y96.725 E.07568
G1 X133.139 Y95.386 E.07504
G1 X135.206 Y94.584 E.07504
G1 X137.428 Y94.338 E.07568
G1 X139.642 Y94.647 E.07568
G1 X141.685 Y95.509 E.07504
G1 X143.413 Y96.897 E.07504
G1 X144.737 Y98.699 E.07568
G1 X145.576 Y100.771 E.07568
G1 X145.852 Y102.971 E.07504
G1 X145.513 Y105.162 E.07504
G1 X144.615 Y107.209 E.07568
G1 X143.24 Y108.972 E.07568
G1 X141.473 Y110.31 E.07504
G1 X139.406 Y111.113 E.07504
G1 X137.184 Y111.359 E.07568
G1 X134.97 Y111.049 E.07568
G1 X132.927 Y110.188 E.07504
G1 X131.199 Y108.8 E.07504
G1 X129.875 Y106.998 E.07568
G1 X129.036 Y104.926 E.07568
G1 X128.768 Y102.786 E.07301
M204 S1000
; stop printing object Among_Us.stl id:0 copy 0
;LAYER_CHANGE
;Z:4.8
;HEIGHT:0.2
;BEFORE_LAYER_CHANGE
G92 E0.0
;4.8


;WIPE_START
G1 F8640
G1 X129.099 Y100.535 E-.52521
G1 X129.507 Y99.604 E-.23479
;WIPE_END
G1 E-.04 F2100
G1 Z5 F10800
;AFTER_LAYER_CHANGE
;4.8
; printing object Among_Us.stl id:0 copy 0
G1 X120.934 Y100.525
G1 Z4.8
G1 E.8 F2100
M204 S800
G1 F900
G1 X121.273 Y102.725 E.07532
G1 X120.996 Y104.933 E.07532
G1 X120.153 Y107.013 E.07597
G1 X118.824 Y108.821 E.07597
G1 X117.089 Y110.214 E.07532
G1 X115.038 Y111.079 E.07532
G1 X112.815 Y111.389 E.07597
G1 X110.585 Y111.141 E.07597
G1 X108.51 Y110.335 E.07532
G1 X106.737 Y108.992 E.07532
G1 X105.357 Y107.222 E.07597
G1 X104.456 Y105.166 E.07597
G1 X104.117 Y102.967 E.07532
G1 X104.393 Y100.759 E.07532
G1 X105.236 Y98.679 E.07597
G1 X106.566 Y96.871 E.07597
G1 X108.301 Y95.477 E.07532
G1 X110.351 Y94.613 E.07531
G1 X112.6 Y94.306 E.07683
G1 X114.805 Y94.55 E.07509
G1 X116.879 Y95.356 E.07532
G1 X118.653 Y96.7 E.07532
G1 X120.033 Y98.47 E.07597
G1 X120.91 Y100.471 E.07394
M204 S1000
;WIPE_START
G1 F8640
G1 X121.273 Y102.725 E-.52722
G1 X121.148 Y103.725 E-.23278
;WIPE_END
G1 E-.04 F2100
G1 Z5.2 F10800
G1 X128.727 Y102.726
G1 Z4.8
G1 E.8 F2100
M204 S800
G1 F900
G1 X129.067 Y100.526 E.07532
G1 X129.968 Y98.471 E.07597
G1 X131.349 Y96.701 E.07597
G1 X133.123 Y95.358 E.07532
G1 X135.197 Y94.552 E.07532
G1 X137.428 Y94.305 E.07597
G1 X139.625 Y94.613 E.07509
G1 X141.701 Y95.481 E.07618
G1 X143.435 Y96.874 E.07531
G1 X144.765 Y98.683 E.07597
G1 X145.607 Y100.763 E.07597
G1 X145.883 Y102.971 E.07532
G1 X145.544 Y105.17 E.07532
G1 X144.642 Y107.226 E.07597
G1 X143.262 Y108.995 E.07597
G1 X141.488 Y110.339 E.07532
G1 X139.414 Y111.144 E.07532
G1 X137.183 Y111.391 E.07597
G1 X134.96 Y111.081 E.07597
G1 X132.91 Y110.216 E.07532
G1 X131.175 Y108.822 E.07532
G1 X129.846 Y107.014 E.07597
M73 Q5 S62
G1 X129.004 Y104.934 E.07597
G1 X128.735 Y102.785 E.07329
M204 S1000
; stop printing object Among_Us.stl id:0 copy 0
;LAYER_CHANGE
;Z:5
;HEIGHT:0.2
;BEFORE_LAYER_CHANGE
G92 E0.0
;5


;WIPE_START
G1 F8640
G1 X129.067 Y100.526 E-.52716
G1 X129.472 Y99.603 E-.23284
;WIPE_END
G1 E-.04 F2100
G1 Z5.2 F10800
;AFTER_LAYER_CHANGE
;5
; printing object Among_Us.stl id:0 copy 0
G1 X120.952 Y100.52
M73 P5 R62
G1 Z5
G1 E.8 F2100
M204 S800
G1 F900
G1 X121.291 Y102.724 E.0755
G1 X121.014 Y104.938 E.0755
G1 X120.169 Y107.022 E.07614
G1 X118.837 Y108.835 E.07614
G1 X117.098 Y110.231 E.07548
G1 X115.043 Y111.097 E.07548
G1 X112.816 Y111.408 E.07613
G1 X110.581 Y111.159 E.07613
G1 X108.502 Y110.352 E.07548
G1 X106.725 Y109.005 E.07548
G1 X105.342 Y107.231 E.07613
G1 X104.439 Y105.171 E.07613
G1 X104.099 Y102.967 E.07548
G1 X104.377 Y100.754 E.07548
G1 X105.221 Y98.67 E.07613
G1 X106.554 Y96.858 E.07613
G1 X108.292 Y95.461 E.07548
G1 X110.347 Y94.595 E.07548
G1 X112.574 Y94.284 E.07613
G1 X114.81 Y94.532 E.07612
G1 X116.888 Y95.339 E.07548
G1 X118.665 Y96.686 E.07548
G1 X120.049 Y98.46 E.07614
G1 X120.927 Y100.465 E.07411
M204 S1000
;WIPE_START
G1 F8640
G1 X121.291 Y102.724 E-.5284
G1 X121.167 Y103.72 E-.2316
;WIPE_END
G1 E-.04 F2100
G1 Z5.4 F10800
G1 X128.709 Y102.725
G1 Z5
G1 E.8 F2100
M204 S800
G1 F900
G1 X129.049 Y100.521 E.0755
G1 X129.952 Y98.461 E.07614
G1 X131.336 Y96.687 E.07614
G1 X133.113 Y95.341 E.07548
G1 X135.192 Y94.534 E.07548
G1 X137.427 Y94.287 E.07613
G1 X139.655 Y94.598 E.07612
G1 X141.709 Y95.465 E.07548
G1 X143.448 Y96.862 E.07548
G1 X144.78 Y98.674 E.07613
G1 X145.624 Y100.759 E.07613
G1 X145.901 Y102.971 E.07548
G1 X145.56 Y105.175 E.07548
G1 X144.657 Y107.235 E.07613
G1 X143.274 Y109.008 E.07613
G1 X141.496 Y110.355 E.07548
G1 X139.418 Y111.162 E.07548
G1 X137.182 Y111.41 E.07613
G1 X134.955 Y111.099 E.07613
G1 X132.9 Y110.233 E.07548
G1 X131.162 Y108.836 E.07548
G1 X129.83 Y107.023 E.07614
G1 X128.986 Y104.938 E.07614
G1 X128.716 Y102.785 E.07346
M204 S1000
; stop printing object Among_Us.stl id:0 copy 0
;LAYER_CHANGE
;Z:5.2
;HEIGHT:0.2
;BEFORE_LAYER_CHANGE
G92 E0.0
;5.2


;WIPE_START
G1 F8640
G1 X129.049 Y100.521 E-.52834
G1 X129.452 Y99.602 E-.23166
;WIPE_END
G1 E-.04 F2100
G1 Z5.4 F10800
;AFTER_LAYER_CHANGE
;5.2
; printing object Among_Us.stl id:0 copy 0
G1 X120.969 Y100.515
G1 Z5.2
G1 E.8 F2100
M204 S800
G1 F900
G1 X121.31 Y102.724 E.07567
G1 X121.032 Y104.942 E.07567
G1 X120.185 Y107.032 E.07631
G1 X118.85 Y108.848 E.0763
G1 X117.108 Y110.248 E.07564
G1 X115.049 Y111.115 E.07563
G1 X112.817 Y111.426 E.07628
G1 X110.577 Y111.177 E.07628
G1 X108.494 Y110.368 E.07564
G1 X106.713 Y109.018 E.07564
G1 X105.327 Y107.24 E.07629
G1 X104.422 Y105.176 E.07629
G1 X104.082 Y102.967 E.07564
G1 X104.36 Y100.75 E.07564
G1 X105.206 Y98.661 E.07629
G1 X106.541 Y96.845 E.07629
G1 X108.283 Y95.445 E.07564
G1 X110.342 Y94.577 E.07564
G1 X112.575 Y94.265 E.07629
G1 X114.814 Y94.513 E.07628
G1 X116.897 Y95.322 E.07563
G1 X118.678 Y96.672 E.07564
G1 X120.064 Y98.45 E.0763
G1 X120.945 Y100.46 E.07428
M204 S1000
;WIPE_START
G1 F8640
G1 X121.31 Y102.724 E-.52958
G1 X121.186 Y103.714 E-.23042
;WIPE_END
G1 E-.04 F2100
G1 Z5.6 F10800
G1 X128.69 Y102.725
G1 Z5.2
G1 E.8 F2100
M204 S800
G1 F900
G1 X129.031 Y100.516 E.07567
G1 X129.937 Y98.451 E.07631
G1 X131.323 Y96.673 E.0763
G1 X133.104 Y95.324 E.07564
G1 X135.187 Y94.515 E.07563
G1 X137.427 Y94.268 E.07628
G1 X139.659 Y94.58 E.07628
G1 X141.718 Y95.449 E.07564
G1 X143.46 Y96.849 E.07564
G1 X144.795 Y98.665 E.07629
G1 X145.64 Y100.754 E.07629
G1 X145.918 Y102.972 E.07564
G1 X145.577 Y105.18 E.07564
G1 X144.672 Y107.244 E.07629
G1 X143.286 Y109.022 E.07629
G1 X141.504 Y110.371 E.07564
G1 X139.422 Y111.18 E.07564
G1 X137.182 Y111.429 E.07628
G1 X134.95 Y111.117 E.07628
G1 X132.891 Y110.249 E.07563
G1 X131.149 Y108.849 E.07564
G1 X129.814 Y107.033 E.0763
G1 X128.968 Y104.943 E.07631
G1 X128.698 Y102.784 E.07364
M204 S1000
; stop printing object Among_Us.stl id:0 copy 0
;LAYER_CHANGE
;Z:5.4
;HEIGHT:0.2
;BEFORE_LAYER_CHANGE
G92 E0.0
;5.4


;WIPE_START
G1 F8640
G1 X129.031 Y100.516 E-.52952
G1 X129.432 Y99.601 E-.23048
;WIPE_END
G1 E-.04 F2100
G1 Z5.6 F10800
;AFTER_LAYER_CHANGE
;5.4
; printing object Among_Us.stl id:0 copy 0
G1 X120.987 Y100.509
G1 Z5.4
G1 E.8 F2100
M204 S800
G1 F900
G1 X121.328 Y102.724 E.07584
G1 X121.05 Y104.947 E.07584
G1 X120.201 Y107.041 E.07648
G1 X118.863 Y108.862 E.07647
G1 X117.117 Y110.264 E.0758
G1 X115.054 Y111.133 E.07579
G1 X112.817 Y111.445 E.07644
G1 X110.573 Y111.196 E.07644
G1 X108.486 Y110.384 E.0758
G1 X106.701 Y109.031 E.0758
G1 X105.313 Y107.25 E.07645
G1 X104.406 Y105.181 E.07645
G1 X104.065 Y102.967 E.0758
G1 X104.343 Y100.745 E.0758
G1 X105.191 Y98.652 E.07645
G1 X106.529 Y96.832 E.07645
G1 X108.275 Y95.429 E.0758
G1 X110.338 Y94.559 E.0758
G1 X112.575 Y94.246 E.07644
G1 X114.819 Y94.495 E.07643
G1 X116.906 Y95.305 E.07579
G1 X118.691 Y96.658 E.0758
G1 X120.08 Y98.44 E.07647
G1 X120.963 Y100.454 E.07445
M204 S1000
;WIPE_START
G1 F8640
G1 X121.328 Y102.724 E-.53076
G1 X121.205 Y103.709 E-.22924
;WIPE_END
G1 E-.04 F2100
G1 Z5.8 F10800
G1 X128.672 Y102.725
G1 Z5.4
G1 E.8 F2100
M204 S800
G1 F900
G1 X129.013 Y100.51 E.07584
G1 X129.921 Y98.441 E.07649
G1 X131.31 Y96.659 E.07647
G1 X133.095 Y95.307 E.0758
G1 X135.183 Y94.497 E.07579
G1 X137.427 Y94.249 E.07644
G1 X139.664 Y94.562 E.07644
G1 X141.727 Y95.433 E.0758
G1 X143.472 Y96.836 E.0758
G1 X144.81 Y98.656 E.07645
G1 X145.657 Y100.75 E.07645
G1 X145.935 Y102.972 E.0758
G1 X145.594 Y105.185 E.0758
G1 X144.687 Y107.254 E.07645
G1 X143.298 Y109.035 E.07645
G1 X141.513 Y110.387 E.0758
G1 X139.425 Y111.198 E.0758
G1 X137.181 Y111.448 E.07644
G1 X134.944 Y111.136 E.07644
G1 X132.881 Y110.266 E.07579
G1 X131.135 Y108.863 E.0758
G1 X129.798 Y107.042 E.07647
G1 X128.95 Y104.948 E.07648
G1 X128.679 Y102.784 E.07381
M204 S1000
; stop printing object Among_Us.stl id:0 copy 0
;LAYER_CHANGE
;Z:5.6
;HEIGHT:0.2
;BEFORE_LAYER_CHANGE
G92 E0.0
;5.6


;WIPE_START
G1 F8640
G1 X129.013 Y100.51 E-.5307
G1 X129.412 Y99.601 E-.2293
;WIPE_END
G1 E-.04 F2100
G1 Z5.8 F10800
;AFTER_LAYER_CHANGE
;5.6
; printing object Among_Us.stl id:0 copy 0
G1 X121.005 Y100.504
G1 Z5.6
G1 E.8 F2100
M204 S800
G1 F900
G1 X121.347 Y102.724 E.07602
G1 X121.068 Y104.952 E.07601
G1 X120.218 Y107.051 E.07666
G1 X118.877 Y108.875 E.07664
G1 X117.127 Y110.281 E.07597
G1 X115.059 Y111.152 E.07595
G1 X112.818 Y111.464 E.07659
G1 X110.569 Y111.214 E.0766
G1 X108.478 Y110.4 E.07596
G1 X106.689 Y109.044 E.07596
G1 X105.298 Y107.259 E.07662
G1 X104.389 Y105.186 E.07662
G1 X104.047 Y102.968 E.07596
G1 X104.327 Y100.741 E.07596
G1 X105.176 Y98.643 E.07661
G1 X106.517 Y96.819 E.07661
G1 X108.266 Y95.414 E.07596
G1 X110.334 Y94.541 E.07596
G1 X112.575 Y94.227 E.0766
G1 X114.824 Y94.476 E.07659
G1 X116.915 Y95.288 E.07595
G1 X118.704 Y96.644 E.07597
G1 X120.096 Y98.43 E.07664
G1 X120.981 Y100.449 E.07463
M204 S1000
;WIPE_START
G1 F8640
G1 X121.347 Y102.724 E-.53194
G1 X121.224 Y103.704 E-.22806
;WIPE_END
G1 E-.04 F2100
G1 Z6 F10800
G1 X128.653 Y102.724
G1 Z5.6
G1 E.8 F2100
M204 S800
G1 F900
G1 X128.996 Y100.505 E.07601
G1 X129.905 Y98.431 E.07666
G1 X131.297 Y96.645 E.07664
G1 X133.086 Y95.29 E.07597
G1 X135.178 Y94.478 E.07595
G1 X137.427 Y94.23 E.0766
G1 X139.668 Y94.544 E.0766
G1 X141.735 Y95.417 E.07596
G1 X143.484 Y96.823 E.07596
G1 X144.825 Y98.647 E.07661
G1 X145.674 Y100.745 E.07661
G1 X145.953 Y102.972 E.07596
G1 X145.61 Y105.19 E.07596
G1 X144.701 Y107.263 E.07662
G1 X143.309 Y109.048 E.07662
G1 X141.521 Y110.403 E.07596
G1 X139.429 Y111.217 E.07596
G1 X137.18 Y111.466 E.0766
G1 X134.939 Y111.154 E.07659
G1 X132.872 Y110.282 E.07595
G1 X131.122 Y108.876 E.07597
G1 X129.782 Y107.052 E.07664
G1 X128.932 Y104.953 E.07666
G1 X128.661 Y102.784 E.07398
M204 S1000
; stop printing object Among_Us.stl id:0 copy 0
;LAYER_CHANGE
;Z:5.8
;HEIGHT:0.2
;BEFORE_LAYER_CHANGE
G92 E0.0
;5.8


;WIPE_START
G1 F8640
G1 X128.996 Y100.505 E-.53188
G1 X129.392 Y99.6 E-.22812
;WIPE_END
G1 E-.04 F2100
G1 Z6 F10800
;AFTER_LAYER_CHANGE
;5.8
; printing object Among_Us.stl id:0 copy 0
G1 X121.022 Y100.499
G1 Z5.8
G1 E.8 F2100
M204 S800
G1 F900
G1 X121.365 Y102.723 E.07619
G1 X121.085 Y104.957 E.07619
G1 X120.234 Y107.06 E.07683
G1 X118.89 Y108.889 E.07681
G1 X117.136 Y110.297 E.07613
G1 X115.065 Y111.17 E.0761
G1 X112.819 Y111.483 E.07675
G1 X110.565 Y111.232 E.07676
G1 X108.469 Y110.416 E.07612
G1 X106.677 Y109.057 E.07612
G1 X105.283 Y107.268 E.07678
G1 X104.373 Y105.191 E.07678
G1 X104.03 Y102.968 E.07612
G1 X104.31 Y100.736 E.07612
G1 X105.161 Y98.634 E.07678
G1 X106.505 Y96.806 E.07678
G1 X108.257 Y95.398 E.07612
G1 X110.329 Y94.523 E.07612
G1 X112.575 Y94.208 E.07676
G1 X114.829 Y94.457 E.07675
G1 X116.924 Y95.271 E.0761
G1 X118.717 Y96.63 E.07613
G1 X120.112 Y98.42 E.07681
G1 X120.998 Y100.444 E.0748
M204 S1000
;WIPE_START
G1 F8640
G1 X121.365 Y102.723 E-.53312
G1 X121.243 Y103.698 E-.22688
;WIPE_END
G1 E-.04 F2100
G1 Z6.2 F10800
G1 X128.635 Y102.724
G1 Z5.8
G1 E.8 F2100
M204 S800
G1 F900
G1 X128.978 Y100.499 E.07619
G1 X129.889 Y98.421 E.07683
G1 X131.284 Y96.631 E.07681
G1 X133.077 Y95.273 E.07613
G1 X135.173 Y94.46 E.0761
G1 X137.427 Y94.211 E.07675
G1 X139.672 Y94.526 E.07675
G1 X141.744 Y95.401 E.07612
G1 X143.497 Y96.81 E.07612
G1 X144.84 Y98.638 E.07678
G1 X145.691 Y100.741 E.07678
G1 X145.97 Y102.972 E.07612
G1 X145.627 Y105.195 E.07612
G1 X144.716 Y107.272 E.07678
G1 X143.321 Y109.061 E.07678
M73 Q6 S62
G1 X141.529 Y110.419 E.07612
G1 X139.433 Y111.235 E.07612
G1 X137.18 Y111.485 E.07676
G1 X134.934 Y111.172 E.07675
G1 X132.862 Y110.299 E.0761
M73 P6 R62
G1 X131.109 Y108.89 E.07613
G1 X129.766 Y107.061 E.07681
G1 X128.914 Y104.957 E.07683
G1 X128.642 Y102.784 E.07416
M204 S1000
; stop printing object Among_Us.stl id:0 copy 0
;LAYER_CHANGE
;Z:6
;HEIGHT:0.2
;BEFORE_LAYER_CHANGE
G92 E0.0
;6


;WIPE_START
G1 F8640
G1 X128.978 Y100.499 E-.53306
G1 X129.373 Y99.599 E-.22694
;WIPE_END
G1 E-.04 F2100
G1 Z6.2 F10800
;AFTER_LAYER_CHANGE
;6
; printing object Among_Us.stl id:0 copy 0
G1 X121.04 Y100.493
G1 Z6
G1 E.8 F2100
M204 S800
G1 F900
G1 X121.384 Y102.723 E.07636
G1 X121.103 Y104.961 E.07636
G1 X120.25 Y107.07 E.077
G1 X118.903 Y108.902 E.07697
G1 X117.146 Y110.314 E.07629
G1 X115.07 Y111.188 E.07626
G1 X112.819 Y111.502 E.07691
G1 X110.561 Y111.25 E.07692
G1 X108.461 Y110.432 E.07627
G1 X106.666 Y109.07 E.07628
G1 X105.268 Y107.277 E.07694
G1 X104.356 Y105.195 E.07694
G1 X104.013 Y102.968 E.07629
G1 X104.293 Y100.732 E.07628
G1 X105.146 Y98.625 E.07694
G1 X106.492 Y96.793 E.07694
G1 X108.249 Y95.382 E.07628
G1 X110.325 Y94.505 E.07628
G1 X112.575 Y94.19 E.07692
M73 P6 R61
G1 X114.833 Y94.439 E.0769
G1 X116.933 Y95.254 E.07626
G1 X118.73 Y96.616 E.07629
G1 X120.127 Y98.41 E.07697
G1 X121.016 Y100.438 E.07497
M204 S1000
;WIPE_START
G1 F8640
G1 X121.384 Y102.723 E-.5343
G1 X121.262 Y103.693 E-.2257
;WIPE_END
G1 E-.04 F2100
G1 Z6.4 F10800
G1 X128.616 Y102.724
G1 Z6
G1 E.8 F2100
M204 S800
G1 F900
G1 X128.96 Y100.494 E.07636
G1 X129.874 Y98.411 E.077
G1 X131.272 Y96.617 E.07697
G1 X133.068 Y95.256 E.07629
G1 X135.168 Y94.441 E.07626
G1 X137.427 Y94.192 E.07691
G1 X139.677 Y94.508 E.07691
G1 X141.753 Y95.385 E.07628
G1 X143.509 Y96.797 E.07628
G1 X144.855 Y98.629 E.07694
G1 X145.707 Y100.736 E.07694
G1 X145.987 Y102.972 E.07628
M73 Q6 S61
G1 X145.643 Y105.2 E.07629
G1 X144.731 Y107.281 E.07694
G1 X143.333 Y109.074 E.07694
G1 X141.537 Y110.436 E.07628
G1 X139.437 Y111.253 E.07627
G1 X137.179 Y111.504 E.07692
G1 X134.928 Y111.191 E.07691
G1 X132.852 Y110.315 E.07626
G1 X131.096 Y108.904 E.07629
G1 X129.749 Y107.071 E.07697
G1 X128.896 Y104.962 E.077
G1 X128.624 Y102.783 E.07433
M204 S1000
; stop printing object Among_Us.stl id:0 copy 0
;LAYER_CHANGE
;Z:6.2
;HEIGHT:0.2
;BEFORE_LAYER_CHANGE
G92 E0.0
;6.2


;WIPE_START
G1 F8640
G1 X128.96 Y100.494 E-.53424
G1 X129.353 Y99.599 E-.22576
;WIPE_END
G1 E-.04 F2100
G1 Z6.4 F10800
;AFTER_LAYER_CHANGE
;6.2
; printing object Among_Us.stl id:0 copy 0
G1 X121.058 Y100.488
G1 Z6.2
G1 E.8 F2100
M204 S800
G1 F900
G1 X121.402 Y102.723 E.07653
G1 X121.121 Y104.966 E.07653
G1 X120.266 Y107.079 E.07717
G1 X118.916 Y108.916 E.07714
G1 X117.156 Y110.33 E.07645
G1 X115.075 Y111.207 E.07642
G1 X112.82 Y111.52 E.07706
G1 X110.557 Y111.268 E.07707
G1 X108.453 Y110.448 E.07643
G1 X106.654 Y109.084 E.07644
G1 X105.254 Y107.287 E.0771
G1 X104.34 Y105.2 E.0771
G1 X103.996 Y102.968 E.07645
G1 X104.276 Y100.727 E.07644
G1 X105.131 Y98.616 E.0771
G1 X106.48 Y96.781 E.0771
G1 X108.24 Y95.366 E.07644
G1 X110.32 Y94.487 E.07643
G1 X112.575 Y94.171 E.07707
G1 X114.838 Y94.42 E.07706
G1 X116.943 Y95.238 E.07642
G1 X118.742 Y96.602 E.07645
G1 X120.143 Y98.4 E.07714
G1 X121.034 Y100.433 E.07514
M204 S1000
;WIPE_START
G1 F8640
G1 X121.402 Y102.723 E-.53548
G1 X121.281 Y103.687 E-.22452
;WIPE_END
G1 E-.04 F2100
G1 Z6.6 F10800
G1 X128.598 Y102.723
G1 Z6.2
G1 E.8 F2100
M204 S800
G1 F900
G1 X128.943 Y100.489 E.07653
G1 X129.858 Y98.401 E.07717
G1 X131.259 Y96.603 E.07714
G1 X133.059 Y95.239 E.07645
G1 X135.164 Y94.422 E.07642
G1 X137.427 Y94.173 E.07707
G1 X139.681 Y94.49 E.07707
G1 X141.761 Y95.369 E.07643
G1 X143.521 Y96.784 E.07644
G1 X144.87 Y98.62 E.0771
G1 X145.724 Y100.732 E.0771
G1 X146.004 Y102.973 E.07644
G1 X145.66 Y105.205 E.07645
G1 X144.745 Y107.291 E.0771
G1 X143.345 Y109.087 E.0771
G1 X141.545 Y110.452 E.07644
G1 X139.441 Y111.271 E.07643
G1 X137.178 Y111.523 E.07707
G1 X134.923 Y111.209 E.07706
G1 X132.843 Y110.332 E.07642
G1 X131.082 Y108.917 E.07645
G1 X129.733 Y107.08 E.07714
G1 X128.878 Y104.967 E.07717
G1 X128.605 Y102.783 E.0745
M204 S1000
; stop printing object Among_Us.stl id:0 copy 0
;LAYER_CHANGE
;Z:6.4
;HEIGHT:0.2
;BEFORE_LAYER_CHANGE
G92 E0.0
;6.4


;WIPE_START
G1 F8640
G1 X128.943 Y100.489 E-.53542
G1 X129.333 Y99.598 E-.22458
;WIPE_END
G1 E-.04 F2100
G1 Z6.6 F10800
;AFTER_LAYER_CHANGE
;6.4
; printing object Among_Us.stl id:0 copy 0
G1 X121.076 Y100.483
G1 Z6.4
G1 E.8 F2100
M204 S800
G1 F900
G1 X121.421 Y102.722 E.07671
G1 X121.139 Y104.971 E.0767
G1 X120.282 Y107.089 E.07734
G1 X118.93 Y108.929 E.07731
G1 X117.165 Y110.347 E.07661
G1 X115.08 Y111.225 E.07657
G1 X112.821 Y111.539 E.07722
G1 X110.553 Y111.286 E.07723
G1 X108.445 Y110.464 E.07659
G1 X106.642 Y109.097 E.0766
G1 X105.239 Y107.296 E.07726
G1 X104.323 Y105.205 E.07726
G1 X103.978 Y102.968 E.07661
G1 X104.26 Y100.723 E.0766
G1 X105.116 Y98.607 E.07726
G1 X106.468 Y96.768 E.07726
G1 X108.231 Y95.35 E.0766
G1 X110.316 Y94.469 E.07659
G1 X112.575 Y94.152 E.07723
G1 X114.843 Y94.402 E.07722
G1 X116.952 Y95.221 E.07657
G1 X118.755 Y96.588 E.07661
G1 X120.159 Y98.39 E.07731
G1 X121.052 Y100.428 E.07531
M204 S1000
;WIPE_START
G1 F8640
G1 X121.421 Y102.722 E-.53666
G1 X121.301 Y103.682 E-.22334
;WIPE_END
G1 E-.04 F2100
G1 Z6.8 F10800
G1 X128.579 Y102.723
G1 Z6.4
G1 E.8 F2100
M204 S800
G1 F900
G1 X128.925 Y100.483 E.07671
G1 X129.842 Y98.391 E.07734
G1 X131.246 Y96.589 E.07731
G1 X133.05 Y95.222 E.07661
G1 X135.159 Y94.404 E.07657
G1 X137.427 Y94.154 E.07722
G1 X139.686 Y94.472 E.07723
G1 X141.77 Y95.353 E.07659
G1 X143.533 Y96.772 E.0766
G1 X144.885 Y98.611 E.07726
G1 X145.741 Y100.727 E.07726
G1 X146.022 Y102.973 E.0766
G1 X145.677 Y105.209 E.07661
G1 X144.76 Y107.3 E.07726
G1 X143.357 Y109.1 E.07726
G1 X141.554 Y110.468 E.0766
G1 X139.445 Y111.289 E.07659
G1 X137.177 Y111.542 E.07723
G1 X134.918 Y111.227 E.07722
G1 X132.833 Y110.349 E.07657
G1 X131.069 Y108.931 E.07661
G1 X129.717 Y107.09 E.07731
G1 X128.861 Y104.972 E.07734
G1 X128.587 Y102.783 E.07467
M204 S1000
; stop printing object Among_Us.stl id:0 copy 0
;LAYER_CHANGE
;Z:6.6
;HEIGHT:0.2
;BEFORE_LAYER_CHANGE
G92 E0.0
;6.6


;WIPE_START
G1 F8640
G1 X128.925 Y100.483 E-.5366
G1 X129.313 Y99.597 E-.2234
;WIPE_END
G1 E-.04 F2100
G1 Z6.8 F10800
;AFTER_LAYER_CHANGE
;6.6
; printing object Among_Us.stl id:0 copy 0
G1 X121.093 Y100.477
G1 Z6.6
G1 E.8 F2100
M204 S800
G1 F900
G1 X121.439 Y102.722 E.07688
G1 X121.157 Y104.976 E.07688
G1 X120.298 Y107.098 E.07751
G1 X118.943 Y108.943 E.07747
G1 X117.175 Y110.363 E.07677
G1 X115.086 Y111.243 E.07673
G1 X112.821 Y111.558 E.07738
G1 X110.549 Y111.304 E.07739
G1 X108.437 Y110.481 E.07675
G1 X106.63 Y109.11 E.07676
G1 X105.224 Y107.305 E.07743
G1 X104.306 Y105.21 E.07743
G1 X103.961 Y102.969 E.07677
G1 X104.243 Y100.718 E.07677
G1 X105.101 Y98.598 E.07742
G1 X106.456 Y96.755 E.07742
G1 X108.223 Y95.334 E.07676
G1 X110.311 Y94.451 E.07675
G1 X112.576 Y94.133 E.07739
G1 X114.848 Y94.383 E.07737
G1 X116.961 Y95.204 E.07673
G1 X118.768 Y96.574 E.07677
G1 X120.175 Y98.379 E.07748
G1 X121.069 Y100.422 E.07549
M204 S1000
;WIPE_START
G1 F8640
G1 X121.439 Y102.722 E-.53784
G1 X121.32 Y103.677 E-.22216
;WIPE_END
G1 E-.04 F2100
G1 Z7 F10800
G1 X128.561 Y102.723
G1 Z6.6
G1 E.8 F2100
M204 S800
G1 F900
G1 X128.907 Y100.478 E.07688
G1 X129.826 Y98.38 E.07752
G1 X131.233 Y96.575 E.07748
G1 X133.041 Y95.205 E.07677
G1 X135.154 Y94.385 E.07673
G1 X137.426 Y94.135 E.07738
G1 X139.69 Y94.454 E.07738
G1 X141.779 Y95.337 E.07675
G1 X143.546 Y96.759 E.07676
G1 X144.9 Y98.602 E.07742
G1 X145.757 Y100.723 E.07742
G1 X146.039 Y102.973 E.07677
G1 X145.693 Y105.214 E.07677
G1 X144.775 Y107.309 E.07743
G1 X143.369 Y109.114 E.07743
G1 X141.562 Y110.484 E.07676
G1 X139.449 Y111.307 E.07675
G1 X137.177 Y111.56 E.07739
G1 X134.913 Y111.245 E.07738
G1 X132.824 Y110.365 E.07673
G1 X131.056 Y108.944 E.07677
G1 X129.701 Y107.099 E.07747
G1 X128.843 Y104.976 E.07751
G1 X128.568 Y102.782 E.07485
M204 S1000
; stop printing object Among_Us.stl id:0 copy 0
;LAYER_CHANGE
;Z:6.8
;HEIGHT:0.2
;BEFORE_LAYER_CHANGE
G92 E0.0
;6.8


;WIPE_START
G1 F8640
G1 X128.907 Y100.478 E-.53778
G1 X129.293 Y99.597 E-.22222
;WIPE_END
G1 E-.04 F2100
G1 Z7 F10800
;AFTER_LAYER_CHANGE
;6.8
; printing object Among_Us.stl id:0 copy 0
G1 X121.106 Y100.472
G1 Z6.8
G1 E.8 F2100
M204 S800
G1 F900
G1 X121.452 Y102.722 E.07706
G1 X121.169 Y104.98 E.07705
G1 X120.309 Y107.108 E.07768
G1 X118.952 Y108.956 E.07762
G1 X117.181 Y110.379 E.0769
G1 X115.089 Y111.261 E.07684
G1 X112.821 Y111.575 E.07749
G1 X110.546 Y111.32 E.0775
G1 X108.43 Y110.494 E.07687
G1 X106.621 Y109.12 E.07689
G1 X105.213 Y107.313 E.07756
G1 X104.294 Y105.214 E.07756
G1 X103.948 Y102.968 E.0769
G1 X104.23 Y100.714 E.07689
G1 X105.09 Y98.591 E.07755
G1 X106.446 Y96.744 E.07755
G1 X108.216 Y95.32 E.07689
G1 X110.307 Y94.435 E.07688
G1 X112.575 Y94.115 E.07752
G1 X114.85 Y94.365 E.07746
G1 X116.966 Y95.187 E.07684
G1 X118.777 Y96.56 E.0769
G1 X120.185 Y98.369 E.07763
G1 X121.082 Y100.417 E.07565
M204 S1000
;WIPE_START
G1 F8640
G1 X121.452 Y102.722 E-.53905
G1 X121.333 Y103.671 E-.22095
;WIPE_END
G1 E-.04 F2100
G1 Z7.2 F10800
G1 X128.548 Y102.722
G1 Z6.8
G1 E.8 F2100
M204 S800
G1 F900
G1 X128.895 Y100.472 E.07706
G1 X129.815 Y98.37 E.07768
G1 X131.225 Y96.561 E.07763
G1 X133.035 Y95.189 E.0769
G1 X135.152 Y94.367 E.07684
M73 Q7 S61
G1 X137.427 Y94.118 E.07749
G1 X139.694 Y94.438 E.07748
G1 X141.786 Y95.323 E.0769
G1 X143.555 Y96.748 E.07689
G1 X144.911 Y98.595 E.07755
G1 X145.77 Y100.719 E.07755
M73 P7 R61
G1 X146.052 Y102.973 E.07689
G1 X145.706 Y105.218 E.0769
G1 X144.786 Y107.317 E.07756
G1 X143.378 Y109.124 E.07756
G1 X141.569 Y110.498 E.07689
G1 X139.453 Y111.323 E.07687
G1 X137.177 Y111.577 E.0775
G1 X134.91 Y111.263 E.07749
G1 X132.818 Y110.381 E.07684
G1 X131.047 Y108.957 E.0769
G1 X129.69 Y107.109 E.07762
G1 X128.83 Y104.981 E.07768
G1 X128.555 Y102.782 E.07502
M204 S1000
; stop printing object Among_Us.stl id:0 copy 0
;LAYER_CHANGE
;Z:7
;HEIGHT:0.2
;BEFORE_LAYER_CHANGE
G92 E0.0
;7


;WIPE_START
G1 F8640
G1 X128.895 Y100.472 E-.53899
G1 X129.279 Y99.596 E-.22101
;WIPE_END
G1 E-.04 F2100
G1 Z7.2 F10800
;AFTER_LAYER_CHANGE
;7
; printing object Among_Us.stl id:0 copy 0
G1 X121.114 Y100.466
G1 Z7
G1 E.8 F2100
M204 S800
G1 F900
G1 X121.461 Y102.721 E.07724
G1 X121.178 Y104.985 E.07723
G1 X120.316 Y107.117 E.07784
G1 X118.957 Y108.969 E.07776
G1 X117.184 Y110.395 E.077
G1 X115.09 Y111.277 E.07692
G1 X112.82 Y111.59 E.07756
G1 X110.542 Y111.333 E.07759
G1 X108.425 Y110.506 E.07697
G1 X106.613 Y109.129 E.077
G1 X105.204 Y107.318 E.07766
G1 X104.285 Y105.216 E.07766
G1 X103.938 Y102.968 E.077
G1 X104.221 Y100.711 E.077
G1 X105.081 Y98.584 E.07765
G1 X106.439 Y96.735 E.07765
G1 X108.21 Y95.308 E.07699
G1 X110.304 Y94.421 E.07697
G1 X112.574 Y94.099 E.0776
G1 X114.851 Y94.348 E.07754
G1 X116.969 Y95.17 E.07692
G1 X118.782 Y96.545 E.077
G1 X120.193 Y98.359 E.07777
G1 X121.09 Y100.411 E.07582
M204 S1000
;WIPE_START
G1 F8640
G1 X121.461 Y102.721 E-.54028
G1 X121.343 Y103.665 E-.21972
;WIPE_END
G1 E-.04 F2100
G1 Z7.4 F10800
G1 X128.539 Y102.722
G1 Z7
G1 E.8 F2100
M204 S800
G1 F900
G1 X128.886 Y100.467 E.07724
G1 X129.808 Y98.36 E.07785
G1 X131.22 Y96.547 E.07777
G1 X133.032 Y95.172 E.077
G1 X135.151 Y94.35 E.07692
G1 X137.429 Y94.102 E.07756
G1 X139.697 Y94.424 E.07756
G1 X141.791 Y95.312 E.07699
G1 X143.563 Y96.739 E.07699
G1 X144.92 Y98.588 E.07765
G1 X145.779 Y100.715 E.07765
G1 X146.062 Y102.972 E.077
G1 X145.715 Y105.221 E.077
G1 X144.795 Y107.323 E.07766
G1 X143.385 Y109.133 E.07766
G1 X141.574 Y110.509 E.077
G1 X139.456 Y111.336 E.07697
G1 X137.178 Y111.593 E.07759
G1 X134.908 Y111.279 E.07756
G1 X132.814 Y110.397 E.07692
G1 X131.042 Y108.971 E.077
G1 X129.683 Y107.118 E.07776
G1 X128.822 Y104.986 E.07784
G1 X128.546 Y102.781 E.0752
M204 S1000
; stop printing object Among_Us.stl id:0 copy 0
;LAYER_CHANGE
;Z:7.2
;HEIGHT:0.2
;BEFORE_LAYER_CHANGE
G92 E0.0
;7.2


;WIPE_START
G1 F8640
G1 X128.886 Y100.467 E-.54022
G1 X129.268 Y99.595 E-.21978
;WIPE_END
G1 E-.04 F2100
G1 Z7.4 F10800
;AFTER_LAYER_CHANGE
;7.2
; printing object Among_Us.stl id:0 copy 0
G1 X121.123 Y100.46
G1 Z7.2
G1 E.8 F2100
M204 S800
G1 F900
G1 X121.47 Y102.721 E.07742
G1 X121.187 Y104.99 E.07741
G1 X120.324 Y107.127 E.07801
G1 X118.963 Y108.983 E.0779
G1 X117.188 Y110.41 E.07711
G1 X115.091 Y111.293 E.077
G1 X112.819 Y111.606 E.07763
G1 X110.539 Y111.347 E.07767
G1 X108.419 Y110.517 E.07706
G1 X106.606 Y109.138 E.0771
G1 X105.196 Y107.324 E.07777
G1 X104.275 Y105.219 E.07777
G1 X103.929 Y102.968 E.07711
G1 X104.212 Y100.708 E.0771
G1 X105.073 Y98.578 E.07776
G1 X106.431 Y96.726 E.07776
G1 X108.205 Y95.296 E.07709
G1 X110.3 Y94.407 E.07706
G1 X112.572 Y94.083 E.07768
G1 X114.852 Y94.331 E.07761
G1 X116.972 Y95.154 E.077
G1 X118.787 Y96.531 E.07711
G1 X120.2 Y98.348 E.07791
G1 X121.099 Y100.405 E.07599
M204 S1000
;WIPE_START
G1 F8640
G1 X121.47 Y102.721 E-.54151
G1 X121.353 Y103.66 E-.21849
;WIPE_END
G1 E-.04 F2100
G1 Z7.6 F10800
G1 X128.53 Y102.721
G1 Z7.2
G1 E.8 F2100
M204 S800
G1 F900
G1 X128.878 Y100.461 E.07742
G1 X129.801 Y98.349 E.07802
G1 X131.214 Y96.532 E.07791
G1 X133.029 Y95.156 E.07711
G1 X135.15 Y94.333 E.07699
G1 X137.43 Y94.086 E.07763
G1 X139.701 Y94.409 E.07764
G1 X141.797 Y95.3 E.07708
G1 X143.57 Y96.73 E.07709
G1 X144.928 Y98.582 E.07776
G1 X145.789 Y100.712 E.07776
G1 X146.071 Y102.972 E.0771
G1 X145.724 Y105.224 E.07711
G1 X144.803 Y107.328 E.07777
G1 X143.392 Y109.142 E.07777
G1 X141.579 Y110.52 E.0771
G1 X139.459 Y111.35 E.07706
G1 X137.179 Y111.608 E.07767
G1 X134.907 Y111.295 E.07763
G1 X132.811 Y110.412 E.077
G1 X131.036 Y108.984 E.07711
G1 X129.676 Y107.128 E.0779
G1 X128.813 Y104.991 E.07801
G1 X128.537 Y102.781 E.07538
M204 S1000
; stop printing object Among_Us.stl id:0 copy 0
;LAYER_CHANGE
;Z:7.4
;HEIGHT:0.2
;BEFORE_LAYER_CHANGE
G92 E0.0
;7.4


;WIPE_START
G1 F8640
G1 X128.878 Y100.461 E-.54145
G1 X129.257 Y99.594 E-.21855
;WIPE_END
G1 E-.04 F2100
G1 Z7.6 F10800
;AFTER_LAYER_CHANGE
;7.4
; printing object Among_Us.stl id:0 copy 0
G1 X121.131 Y100.454
G1 Z7.4
G1 E.8 F2100
M204 S800
G1 F900
G1 X121.479 Y102.72 E.0776
G1 X121.195 Y104.995 E.07759
G1 X120.331 Y107.136 E.07817
G1 X118.968 Y108.996 E.07804
G1 X117.191 Y110.426 E.07721
G1 X115.092 Y111.309 E.07708
G1 X112.818 Y111.621 E.07771
G1 X110.536 Y111.361 E.07775
G1 X108.414 Y110.528 E.07716
G1 X106.599 Y109.147 E.0772
G1 X105.188 Y107.33 E.07787
G1 X104.266 Y105.222 E.07788
G1 X103.919 Y102.967 E.07721
G1 X104.202 Y100.704 E.0772
G1 X105.064 Y98.572 E.07786
G1 X106.424 Y96.717 E.07786
G1 X108.199 Y95.284 E.07719
G1 X110.297 Y94.392 E.07716
G1 X112.571 Y94.067 E.07776
G1 X114.852 Y94.314 E.07768
G1 X116.975 Y95.137 E.07708
G1 X118.792 Y96.517 E.07721
G1 X120.207 Y98.337 E.07804
G1 X121.107 Y100.399 E.07615
M204 S1000
;WIPE_START
G1 F8640
G1 X121.479 Y102.72 E-.54274
G1 X121.363 Y103.654 E-.21726
;WIPE_END
G1 E-.04 F2100
G1 Z7.8 F10800
G1 X128.521 Y102.721
G1 Z7.4
G1 E.8 F2100
M204 S800
G1 F900
G1 X128.869 Y100.455 E.0776
G1 X129.794 Y98.338 E.07818
G1 X131.209 Y96.518 E.07804
G1 X133.026 Y95.139 E.07721
G1 X135.149 Y94.316 E.07707
G1 X137.432 Y94.069 E.07771
G1 X139.705 Y94.395 E.07772
G1 X141.803 Y95.288 E.07718
M73 P7 R60
G1 X143.577 Y96.72 E.07719
G1 X144.937 Y98.576 E.07786
G1 X145.798 Y100.709 E.07786
G1 X146.081 Y102.972 E.0772
G1 X145.734 Y105.226 E.07721
G1 X144.811 Y107.334 E.07788
G1 X143.399 Y109.15 E.07787
G1 X141.585 Y110.532 E.0772
G1 X139.462 Y111.364 E.07716
G1 X137.18 Y111.624 E.07775
G1 X134.906 Y111.311 E.07771
G1 X132.807 Y110.428 E.07708
G1 X131.031 Y108.997 E.07721
G1 X129.668 Y107.137 E.07804
G1 X128.804 Y104.995 E.07817
G1 X128.528 Y102.78 E.07556
M204 S1000
; stop printing object Among_Us.stl id:0 copy 0
;LAYER_CHANGE
;Z:7.6
;HEIGHT:0.2
;BEFORE_LAYER_CHANGE
G92 E0.0
;7.6


;WIPE_START
G1 F8640
G1 X128.869 Y100.455 E-.54268
G1 X129.246 Y99.593 E-.21732
;WIPE_END
G1 E-.04 F2100
G1 Z7.8 F10800
;AFTER_LAYER_CHANGE
;7.6
; printing object Among_Us.stl id:0 copy 0
G1 X121.14 Y100.448
G1 Z7.6
M73 Q7 S60
G1 E.8 F2100
M204 S800
G1 F900
G1 X121.488 Y102.72 E.07778
G1 X121.204 Y104.999 E.07777
G1 X120.338 Y107.146 E.07834
G1 X118.974 Y109.009 E.07817
G1 X117.195 Y110.441 E.07731
G1 X115.093 Y111.325 E.07716
G1 X112.817 Y111.637 E.07778
G1 X110.532 Y111.375 E.07783
G1 X108.408 Y110.54 E.07725
G1 X106.592 Y109.155 E.0773
G1 X105.179 Y107.336 E.07798
G1 X104.257 Y105.225 E.07798
G1 X103.909 Y102.967 E.07732
G1 X104.193 Y100.701 E.07731
G1 X105.056 Y98.565 E.07796
G1 X106.417 Y96.707 E.07796
G1 X108.193 Y95.273 E.0773
G1 X110.293 Y94.378 E.07725
G1 X112.569 Y94.051 E.07784
G1 X114.853 Y94.297 E.07775
G1 X116.978 Y95.121 E.07715
G1 X118.797 Y96.503 E.07731
G1 X120.214 Y98.327 E.07818
G1 X121.116 Y100.393 E.07632
M204 S1000
;WIPE_START
G1 F8640
G1 X121.488 Y102.72 E-.54397
G1 X121.372 Y103.648 E-.21603
;WIPE_END
G1 E-.04 F2100
G1 Z8 F10800
G1 X128.512 Y102.72
G1 Z7.6
G1 E.8 F2100
M204 S800
G1 F900
G1 X128.861 Y100.449 E.07778
G1 X129.787 Y98.328 E.07835
G1 X131.204 Y96.504 E.07818
G1 X133.023 Y95.123 E.07731
G1 X135.149 Y94.299 E.07715
G1 X137.433 Y94.053 E.07778
G1 X139.708 Y94.381 E.0778
G1 X141.808 Y95.276 E.07727
G1 X143.584 Y96.711 E.0773
G1 X144.945 Y98.569 E.07796
G1 X145.807 Y100.705 E.07796
G1 X146.09 Y102.971 E.07731
G1 X145.743 Y105.229 E.07732
G1 X144.82 Y107.34 E.07798
G1 X143.407 Y109.159 E.07798
G1 X141.59 Y110.543 E.0773
G1 X139.466 Y111.378 E.07725
G1 X137.181 Y111.639 E.07783
G1 X134.905 Y111.327 E.07778
G1 X132.804 Y110.443 E.07716
G1 X131.025 Y109.01 E.07731
G1 X129.661 Y107.147 E.07817
G1 X128.796 Y105 E.07834
G1 X128.519 Y102.78 E.07574
M204 S1000
; stop printing object Among_Us.stl id:0 copy 0
;LAYER_CHANGE
;Z:7.8
;HEIGHT:0.2
;BEFORE_LAYER_CHANGE
G92 E0.0
;7.8


;WIPE_START
G1 F8640
G1 X128.861 Y100.449 E-.54391
G1 X129.235 Y99.592 E-.21609
;WIPE_END
G1 E-.04 F2100
G1 Z8 F10800
;AFTER_LAYER_CHANGE
;7.8
; printing object Among_Us.stl id:0 copy 0
G1 X121.148 Y100.443
G1 Z7.8
G1 E.8 F2100
M204 S800
G1 F900
G1 X121.497 Y102.719 E.07796
G1 X121.212 Y105.004 E.07795
G1 X120.346 Y107.155 E.0785
G1 X118.979 Y109.022 E.07831
G1 X117.198 Y110.457 E.07742
G1 X115.095 Y111.341 E.07723
G1 X112.816 Y111.652 E.07785
G1 X110.529 Y111.388 E.07791
G1 X108.403 Y110.551 E.07734
G1 X106.585 Y109.164 E.07741
G1 X105.171 Y107.342 E.07809
G1 X104.247 Y105.227 E.07809
G1 X103.9 Y102.967 E.07742
G1 X104.184 Y100.697 E.07741
G1 X105.047 Y98.559 E.07806
G1 X106.41 Y96.698 E.07807
G1 X108.188 Y95.261 E.0774
G1 X110.289 Y94.364 E.07735
G1 X112.568 Y94.035 E.07792
G1 X114.854 Y94.28 E.07782
G1 X116.981 Y95.104 E.07723
G1 X118.802 Y96.488 E.07742
M73 Q8 S60
G1 X120.221 Y98.316 E.07832
G1 X121.124 Y100.388 E.07649
M204 S1000
;WIPE_START
G1 F8640
G1 X121.497 Y102.719 E-.5452
G1 X121.382 Y103.642 E-.2148
;WIPE_END
G1 E-.04 F2100
G1 Z8.2 F10800
G1 X128.503 Y102.72
G1 Z7.8
M73 P8 R60
G1 E.8 F2100
M204 S800
G1 F900
G1 X128.852 Y100.443 E.07796
G1 X129.78 Y98.317 E.07852
G1 X131.199 Y96.49 E.07832
G1 X133.02 Y95.106 E.07742
G1 X135.148 Y94.282 E.07722
G1 X137.435 Y94.037 E.07786
G1 X139.712 Y94.366 E.07788
G1 X141.814 Y95.264 E.07736
G1 X143.592 Y96.702 E.0774
G1 X144.954 Y98.563 E.07806
G1 X145.817 Y100.702 E.07806
G1 X146.1 Y102.971 E.07741
G1 X145.752 Y105.232 E.07742
G1 X144.828 Y107.346 E.07809
G1 X143.414 Y109.168 E.07809
G1 X141.595 Y110.555 E.07741
G1 X139.469 Y111.391 E.07734
G1 X137.182 Y111.655 E.07791
G1 X134.904 Y111.343 E.07785
G1 X132.8 Y110.458 E.07723
G1 X131.019 Y109.023 E.07742
G1 X129.653 Y107.156 E.07831
G1 X128.787 Y105.005 E.0785
G1 X128.51 Y102.779 E.07592
M204 S1000
; stop printing object Among_Us.stl id:0 copy 0
;LAYER_CHANGE
;Z:8
;HEIGHT:0.2
;BEFORE_LAYER_CHANGE
G92 E0.0
;8


;WIPE_START
G1 F8640
G1 X128.852 Y100.443 E-.54514
G1 X129.225 Y99.591 E-.21486
;WIPE_END
G1 E-.04 F2100
G1 Z8.2 F10800
;AFTER_LAYER_CHANGE
;8
; printing object Among_Us.stl id:0 copy 0
G1 X121.156 Y100.437
G1 Z8
G1 E.8 F2100
M204 S800
G1 F900
G1 X121.506 Y102.719 E.07814
G1 X121.221 Y105.009 E.07813
G1 X120.353 Y107.165 E.07866
G1 X118.985 Y109.035 E.07845
G1 X117.201 Y110.472 E.07752
G1 X115.096 Y111.357 E.07731
G1 X112.815 Y111.668 E.07793
G1 X110.526 Y111.402 E.07799
G1 X108.398 Y110.563 E.07744
G1 X106.578 Y109.173 E.07751
G1 X105.162 Y107.347 E.07819
G1 X104.238 Y105.23 E.07819
G1 X103.89 Y102.966 E.07753
G1 X104.174 Y100.694 E.07751
G1 X105.039 Y98.553 E.07817
G1 X106.402 Y96.689 E.07817
G1 X108.182 Y95.249 E.0775
G1 X110.286 Y94.349 E.07744
G1 X112.566 Y94.018 E.078
G1 X114.854 Y94.263 E.07789
G1 X116.984 Y95.088 E.07731
G1 X118.808 Y96.474 E.07752
G1 X120.228 Y98.306 E.07846
G1 X121.132 Y100.382 E.07665
M204 S1000
;WIPE_START
G1 F8640
G1 X121.506 Y102.719 E-.54643
G1 X121.392 Y103.636 E-.21357
;WIPE_END
G1 E-.04 F2100
G1 Z8.4 F10800
G1 X128.494 Y102.719
G1 Z8
G1 E.8 F2100
M204 S800
G1 F900
G1 X128.844 Y100.438 E.07814
G1 X129.773 Y98.307 E.07868
G1 X131.194 Y96.475 E.07846
G1 X133.017 Y95.09 E.07752
G1 X135.147 Y94.265 E.0773
G1 X137.436 Y94.021 E.07793
G1 X139.716 Y94.352 E.07796
G1 X141.819 Y95.252 E.07745
G1 X143.599 Y96.693 E.0775
G1 X144.962 Y98.557 E.07817
G1 X145.826 Y100.698 E.07817
G1 X146.11 Y102.971 E.07751
G1 X145.761 Y105.234 E.07753
G1 X144.837 Y107.351 E.07819
G1 X143.421 Y109.177 E.07819
G1 X141.601 Y110.566 E.07751
G1 X139.472 Y111.405 E.07744
G1 X137.184 Y111.67 E.07799
G1 X134.902 Y111.359 E.07793
G1 X132.797 Y110.474 E.07731
G1 X131.014 Y109.037 E.07752
G1 X129.646 Y107.166 E.07845
G1 X128.779 Y105.01 E.07866
G1 X128.501 Y102.779 E.0761
M204 S1000
; stop printing object Among_Us.stl id:0 copy 0
;LAYER_CHANGE
;Z:8.2
;HEIGHT:0.2
;BEFORE_LAYER_CHANGE
G92 E0.0
;8.2


;WIPE_START
G1 F8640
G1 X128.844 Y100.438 E-.54637
G1 X129.214 Y99.59 E-.21363
;WIPE_END
G1 E-.04 F2100
G1 Z8.4 F10800
;AFTER_LAYER_CHANGE
;8.2
; printing object Among_Us.stl id:0 copy 0
G1 X121.165 Y100.431
G1 Z8.2
G1 E.8 F2100
M204 S800
G1 F900
G1 X121.515 Y102.718 E.07832
G1 X121.23 Y105.014 E.07831
G1 X120.36 Y107.174 E.07883
G1 X118.99 Y109.049 E.07858
G1 X117.205 Y110.488 E.07763
G1 X115.097 Y111.374 E.07739
G1 X112.814 Y111.683 E.078
G1 X110.523 Y111.416 E.07807
G1 X108.392 Y110.574 E.07753
G1 X106.571 Y109.181 E.07761
G1 X105.154 Y107.353 E.0783
G1 X104.229 Y105.233 E.0783
G1 X103.881 Y102.966 E.07763
G1 X104.165 Y100.691 E.07762
G1 X105.03 Y98.546 E.07827
G1 X106.395 Y96.68 E.07827
G1 X108.177 Y95.237 E.0776
G1 X110.282 Y94.335 E.07753
G1 X112.565 Y94.002 E.07808
G1 X114.174 Y94.171 E.05477
G1 X114.855 Y94.246 E.0232
G1 X116.987 Y95.071 E.07739
G1 X118.813 Y96.46 E.07763
G1 X120.235 Y98.295 E.0786
G1 X121.141 Y100.376 E.07682
M204 S1000
;WIPE_START
G1 F8640
G1 X121.515 Y102.718 E-.54766
G1 X121.402 Y103.631 E-.21234
;WIPE_END
G1 E-.04 F2100
G1 Z8.6 F10800
G1 X128.485 Y102.719
G1 Z8.2
G1 E.8 F2100
M204 S800
G1 F900
G1 X128.836 Y100.432 E.07832
G1 X129.766 Y98.296 E.07885
G1 X131.189 Y96.461 E.0786
G1 X133.014 Y95.073 E.07763
G1 X135.146 Y94.248 E.07738
G1 X137.438 Y94.005 E.07801
G1 X139.719 Y94.338 E.07804
G1 X141.825 Y95.24 E.07754
G1 X143.606 Y96.684 E.0776
G1 X144.971 Y98.55 E.07827
G1 X145.835 Y100.695 E.07827
G1 X146.119 Y102.97 E.07762
G1 X145.771 Y105.237 E.07763
G1 X144.845 Y107.357 E.0783
G1 X143.428 Y109.185 E.0783
G1 X141.606 Y110.577 E.07761
G1 X139.476 Y111.419 E.07753
G1 X137.185 Y111.686 E.07807
G1 X134.901 Y111.376 E.078
G1 X132.794 Y110.489 E.07739
G1 X131.008 Y109.05 E.07763
G1 X129.639 Y107.175 E.07858
G1 X128.77 Y105.015 E.07883
G1 X128.492 Y102.778 E.07628
M204 S1000
; stop printing object Among_Us.stl id:0 copy 0
;LAYER_CHANGE
;Z:8.4
;HEIGHT:0.2
;BEFORE_LAYER_CHANGE
G92 E0.0
;8.4


;WIPE_START
G1 F8640
G1 X128.836 Y100.432 E-.5476
G1 X129.203 Y99.589 E-.2124
;WIPE_END
G1 E-.04 F2100
G1 Z8.6 F10800
;AFTER_LAYER_CHANGE
;8.4
; printing object Among_Us.stl id:0 copy 0
G1 X121.173 Y100.425
G1 Z8.4
G1 E.8 F2100
M204 S800
G1 F900
G1 X121.524 Y102.718 E.0785
G1 X121.238 Y105.019 E.07849
G1 X120.368 Y107.184 E.07899
G1 X118.996 Y109.062 E.07872
G1 X117.208 Y110.503 E.07773
G1 X115.098 Y111.39 E.07747
G1 X112.812 Y111.698 E.07807
G1 X110.519 Y111.43 E.07815
G1 X108.387 Y110.585 E.07763
G1 X106.564 Y109.19 E.07771
G1 X105.145 Y107.359 E.0784
G1 X104.219 Y105.236 E.07841
G1 X103.871 Y102.966 E.07774
G1 X104.156 Y100.687 E.07772
G1 X105.022 Y98.54 E.07837
G1 X106.388 Y96.671 E.07837
G1 X108.171 Y95.225 E.0777
G1 X110.279 Y94.321 E.07763
G1 X112.563 Y93.986 E.07816
G1 X114.389 Y94.178 E.06214
G1 X114.856 Y94.229 E.01589
G1 X116.99 Y95.055 E.07747
G1 X118.818 Y96.445 E.07773
G1 X120.242 Y98.285 E.07874
G1 X121.149 Y100.37 E.07699
M204 S1000
;WIPE_START
G1 F8640
G1 X121.524 Y102.718 E-.54889
G1 X121.412 Y103.625 E-.21111
;WIPE_END
G1 E-.04 F2100
G1 Z8.8 F10800
G1 X128.476 Y102.718
G1 Z8.4
G1 E.8 F2100
M204 S800
G1 F900
G1 X128.827 Y100.426 E.0785
G1 X129.759 Y98.286 E.07902
G1 X131.184 Y96.447 E.07874
G1 X133.011 Y95.057 E.07773
G1 X135.146 Y94.231 E.07745
G1 X137.439 Y93.989 E.07808
G1 X139.723 Y94.324 E.07813
G1 X141.831 Y95.229 E.07763
G1 X143.613 Y96.675 E.0777
G1 X144.979 Y98.544 E.07837
G1 X145.845 Y100.692 E.07837
G1 X146.129 Y102.97 E.07772
G1 X145.78 Y105.24 E.07774
G1 X144.854 Y107.363 E.07841
G1 X143.435 Y109.194 E.0784
G1 X141.611 Y110.589 E.07771
G1 X139.479 Y111.433 E.07763
G1 X137.186 Y111.701 E.07815
G1 X134.9 Y111.392 E.07807
G1 X132.79 Y110.505 E.07747
G1 X131.003 Y109.063 E.07773
G1 X129.631 Y107.185 E.07872
G1 X128.761 Y105.019 E.07899
G1 X128.483 Y102.778 E.07645
M204 S1000
; stop printing object Among_Us.stl id:0 copy 0
;LAYER_CHANGE
;Z:8.6
;HEIGHT:0.200001
;BEFORE_LAYER_CHANGE
G92 E0.0
;8.6


;WIPE_START
G1 F8640
G1 X128.827 Y100.426 E-.54883
G1 X129.192 Y99.588 E-.21117
;WIPE_END
G1 E-.04 F2100
G1 Z8.8 F10800
;AFTER_LAYER_CHANGE
;8.6
; printing object Among_Us.stl id:0 copy 0
G1 X121.182 Y100.419
G1 Z8.6
G1 E.8 F2100
M204 S800
G1 F900
G1 X121.533 Y102.717 E.07868
G1 X121.247 Y105.023 E.07866
G1 X120.375 Y107.193 E.07916
G1 X119.002 Y109.075 E.07885
G1 X117.212 Y110.519 E.07785
G1 X115.099 Y111.406 E.07755
G1 X112.811 Y111.714 E.07814
G1 X110.516 Y111.443 E.07824
G1 X108.382 Y110.597 E.07772
G1 X106.557 Y109.199 E.07782
G1 X105.137 Y107.365 E.07851
G1 X104.21 Y105.238 E.07851
G1 X103.861 Y102.965 E.07784
G1 X104.146 Y100.684 E.07782
G1 X105.013 Y98.534 E.07847
G1 X106.381 Y96.662 E.07848
G1 X108.165 Y95.213 E.0778
G1 X110.275 Y94.306 E.07772
G1 X112.562 Y93.97 E.07824
G1 X114.604 Y94.184 E.06952
G1 X114.857 Y94.212 E.00859
G1 X116.993 Y95.038 E.07755
G1 X118.823 Y96.431 E.07784
G1 X120.249 Y98.274 E.07888
G1 X121.158 Y100.364 E.07715
M204 S1000
;WIPE_START
G1 F8640
G1 X121.533 Y102.717 E-.55012
G1 X121.421 Y103.619 E-.20988
;WIPE_END
G1 E-.04 F2100
G1 Z9 F10800
G1 X128.467 Y102.718
G1 Z8.6
G1 E.8 F2100
M204 S800
G1 F900
G1 X128.819 Y100.42 E.07868
G1 X129.752 Y98.275 E.07918
G1 X131.178 Y96.432 E.07888
G1 X133.008 Y95.04 E.07784
G1 X135.145 Y94.214 E.07753
G1 X137.441 Y93.972 E.07815
G1 X139.727 Y94.309 E.07821
G1 X141.836 Y95.217 E.07773
G1 X143.621 Y96.665 E.0778
G1 X144.988 Y98.538 E.07848
G1 X145.854 Y100.688 E.07847
G1 X146.139 Y102.97 E.07782
G1 X145.789 Y105.243 E.07784
G1 X144.862 Y107.369 E.07851
G1 X143.442 Y109.203 E.07851
G1 X141.617 Y110.6 E.07782
G1 X139.482 Y111.446 E.07772
G1 X137.187 Y111.716 E.07824
G1 X134.899 Y111.408 E.07814
G1 X132.787 Y110.52 E.07755
G1 X130.997 Y109.076 E.07784
G1 X129.624 Y107.194 E.07886
G1 X128.753 Y105.024 E.07916
G1 X128.474 Y102.777 E.07663
M204 S1000
; stop printing object Among_Us.stl id:0 copy 0
;LAYER_CHANGE
;Z:8.8
;HEIGHT:0.2
;BEFORE_LAYER_CHANGE
G92 E0.0
;8.8


;WIPE_START
G1 F8640
G1 X128.819 Y100.42 E-.55005
G1 X129.181 Y99.586 E-.20995
;WIPE_END
G1 E-.04 F2100
G1 Z9 F10800
;AFTER_LAYER_CHANGE
;8.8
; printing object Among_Us.stl id:0 copy 0
G1 X121.19 Y100.414
G1 Z8.8
G1 E.8 F2100
M204 S800
G1 F900
G1 X121.542 Y102.717 E.07886
G1 X121.255 Y105.028 E.07884
G1 X120.382 Y107.203 E.07932
G1 X119.035 Y109.05 E.07739
G1 X117.215 Y110.535 E.07952
G1 X115.101 Y111.422 E.07761
G1 X112.81 Y111.729 E.07822
G1 X110.513 Y111.457 E.07832
G1 X108.376 Y110.608 E.07781
M73 Q9 S60
G1 X106.549 Y109.208 E.07792
G1 X105.129 Y107.37 E.07861
G1 X104.201 Y105.241 E.07862
G1 X103.852 Y102.965 E.07794
G1 X104.137 Y100.681 E.07792
G1 X105.004 Y98.527 E.07858
G1 X106.373 Y96.653 E.07857
M73 P9 R60
G1 X108.16 Y95.201 E.07792
G1 X110.271 Y94.292 E.07782
G1 X112.56 Y93.954 E.07832
G1 X114.82 Y94.191 E.07691
G1 X116.996 Y95.022 E.07886
G1 X118.828 Y96.417 E.07794
G1 X120.256 Y98.264 E.07902
G1 X121.166 Y100.359 E.07732
M204 S1000
;WIPE_START
G1 F8640
G1 X121.542 Y102.717 E-.55135
G1 X121.431 Y103.613 E-.20865
;WIPE_END
G1 E-.04 F2100
G1 Z9.2 F10800
G1 X128.458 Y102.717
G1 Z8.8
G1 E.8 F2100
M204 S800
G1 F900
G1 X128.81 Y100.414 E.07886
G1 X129.745 Y98.265 E.07935
G1 X131.173 Y96.418 E.07902
G1 X133.006 Y95.023 E.07795
G1 X135.144 Y94.197 E.0776
G1 X137.443 Y93.956 E.07823
G1 X139.73 Y94.295 E.07829
G1 X141.842 Y95.205 E.07782
G1 X143.628 Y96.656 E.0779
G1 X144.996 Y98.531 E.07858
G1 X145.864 Y100.685 E.07858
G1 X146.148 Y102.969 E.07792
G1 X145.799 Y105.245 E.07794
G1 X144.871 Y107.375 E.07862
G1 X143.449 Y109.211 E.07861
G1 X141.622 Y110.612 E.07792
G1 X139.486 Y111.46 E.07781
G1 X137.188 Y111.732 E.07832
G1 X134.898 Y111.424 E.07822
G1 X132.783 Y110.536 E.07763
G1 X130.992 Y109.089 E.07794
M73 P9 R59
G1 X129.617 Y107.204 E.079
G1 X128.744 Y105.029 E.07932
G1 X128.465 Y102.777 E.07681
M204 S1000
; stop printing object Among_Us.stl id:0 copy 0
;LAYER_CHANGE
;Z:9
;HEIGHT:0.2
;BEFORE_LAYER_CHANGE
G92 E0.0
;9


;WIPE_START
G1 F8640
G1 X128.81 Y100.414 E-.55128
G1 X129.171 Y99.585 E-.20871
;WIPE_END
G1 E-.04 F2100
G1 Z9.2 F10800
;AFTER_LAYER_CHANGE
;9
; printing object Among_Us.stl id:0 copy 0
G1 X121.193 Y100.404
G1 Z9
G1 E.8 F2100
M204 S800
G1 F900
G1 X121.545 Y102.716 E.07915
G1 X121.258 Y105.037 E.07916
G1 X120.384 Y107.217 E.07952
G1 X119.008 Y109.107 E.07915
G1 X117.215 Y110.555 E.07802
G1 X115.099 Y111.443 E.07766
G1 X112.807 Y111.748 E.07825
G1 X110.508 Y111.473 E.07837
G1 X108.371 Y110.62 E.07789
G1 X106.543 Y109.216 E.07802
G1 X105.121 Y107.376 E.07872
G1 X104.193 Y105.243 E.07872
M73 Q9 S59
G1 X103.844 Y102.964 E.07805
G1 X104.129 Y100.676 E.07804
G1 X104.997 Y98.521 E.07866
G1 X106.367 Y96.642 E.07868
G1 X108.154 Y95.188 E.078
G1 X110.267 Y94.275 E.0779
G1 X112.558 Y93.933 E.07842
G1 X114.855 Y94.172 E.07818
G1 X116.995 Y94.998 E.07764
G1 X118.828 Y96.395 E.07801
G1 X120.257 Y98.247 E.07917
G1 X121.169 Y100.349 E.07755
M204 S1000
;WIPE_START
G1 F8640
G1 X121.545 Y102.716 E-.55335
G1 X121.435 Y103.604 E-.20665
;WIPE_END
G1 E-.04 F2100
G1 Z9.4 F10800
G1 X128.455 Y102.716
G1 Z9
G1 E.8 F2100
M204 S800
G1 F900
G1 X128.808 Y100.405 E.07915
G1 X129.744 Y98.248 E.07959
G1 X131.173 Y96.397 E.07917
G1 X133.007 Y95 E.07801
G1 X135.147 Y94.174 E.07763
G1 X137.445 Y93.936 E.07823
G1 X139.733 Y94.277 E.0783
G1 X141.848 Y95.192 E.07797
G1 X143.635 Y96.646 E.078
G1 X145.004 Y98.525 E.07868
G1 X145.871 Y100.681 E.07867
G1 X146.156 Y102.968 E.07802
G1 X145.806 Y105.248 E.07805
G1 X144.878 Y107.38 E.07872
G1 X143.456 Y109.22 E.07872
G1 X141.628 Y110.624 E.07802
G1 X139.49 Y111.476 E.07789
G1 X137.191 Y111.751 E.07837
G1 X134.9 Y111.445 E.07825
G1 X132.784 Y110.557 E.07766
G1 X130.991 Y109.109 E.07802
G1 X129.615 Y107.218 E.07914
G1 X128.742 Y105.037 E.07955
G1 X128.462 Y102.776 E.0771
M204 S1000
; stop printing object Among_Us.stl id:0 copy 0
;LAYER_CHANGE
;Z:9.2
;HEIGHT:0.2
;BEFORE_LAYER_CHANGE
G92 E0.0
;9.2


;WIPE_START
G1 F8640
G1 X128.808 Y100.405 E-.55329
G1 X129.164 Y99.583 E-.20671
;WIPE_END
G1 E-.04 F2100
G1 Z9.4 F10800
;AFTER_LAYER_CHANGE
;9.2
; printing object Among_Us.stl id:0 copy 0
G1 X121.194 Y100.394
G1 Z9.2
G1 E.8 F2100
M204 S800
G1 F900
G1 X121.548 Y102.715 E.07945
G1 X121.26 Y105.044 E.07946
G1 X120.385 Y107.233 E.07977
G1 X119.007 Y109.128 E.07933
G1 X117.212 Y110.579 E.07811
G1 X115.095 Y111.466 E.07769
G1 X112.803 Y111.769 E.07827
G1 X110.503 Y111.49 E.07841
G1 X108.365 Y110.633 E.07797
G1 X106.537 Y109.225 E.07811
G1 X105.115 Y107.381 E.07882
G1 X104.187 Y105.245 E.07883
G1 X103.837 Y102.963 E.07815
G1 X104.123 Y100.672 E.07814
G1 X104.991 Y98.514 E.07875
G1 X106.36 Y96.632 E.07878
G1 X108.148 Y95.174 E.07809
G1 X110.261 Y94.257 E.07797
G1 X112.553 Y93.911 E.07846
G1 X114.851 Y94.147 E.07819
G1 X116.992 Y94.973 E.07767
G1 X118.827 Y96.372 E.07811
G1 X120.258 Y98.229 E.07935
G1 X121.17 Y100.339 E.07782
M204 S1000
;WIPE_START
G1 F8640
G1 X121.548 Y102.715 E-.55542
G1 X121.439 Y103.594 E-.20458
;WIPE_END
G1 E-.04 F2100
G1 Z9.6 F10800
G1 X128.452 Y102.715
G1 Z9.2
G1 E.8 F2100
M204 S800
G1 F900
G1 X128.806 Y100.395 E.07945
G1 X129.743 Y98.23 E.07985
G1 X131.175 Y96.373 E.07935
G1 X133.01 Y94.974 E.07811
G1 X135.15 Y94.149 E.07766
G1 X137.45 Y93.914 E.07825
G1 X139.739 Y94.259 E.07834
G1 X141.853 Y95.177 E.07804
G1 X143.641 Y96.636 E.07809
G1 X145.01 Y98.518 E.07877
G1 X145.878 Y100.677 E.07877
G1 X146.163 Y102.967 E.07812
G1 X145.813 Y105.249 E.07815
G1 X144.884 Y107.385 E.07883
G1 X143.462 Y109.229 E.07882
G1 X141.633 Y110.637 E.07811
G1 X139.495 Y111.493 E.07797
G1 X137.195 Y111.771 E.07841
G1 X134.903 Y111.468 E.07827
G1 X132.786 Y110.58 E.07769
G1 X130.992 Y109.129 E.07811
G1 X129.614 Y107.234 E.07932
G1 X128.739 Y105.044 E.0798
G1 X128.46 Y102.775 E.0774
M204 S1000
; stop printing object Among_Us.stl id:0 copy 0
;LAYER_CHANGE
;Z:9.4
;HEIGHT:0.2
;BEFORE_LAYER_CHANGE
G92 E0.0
;9.4


;WIPE_START
G1 F8640
G1 X128.806 Y100.395 E-.55536
G1 X129.158 Y99.581 E-.20464
;WIPE_END
G1 E-.04 F2100
G1 Z9.6 F10800
;AFTER_LAYER_CHANGE
;9.4
; printing object Among_Us.stl id:0 copy 0
G1 X121.196 Y100.384
G1 Z9.4
G1 E.8 F2100
M204 S800
G1 F900
G1 X121.55 Y102.714 E.07976
G1 X121.262 Y105.052 E.07975
G1 X120.386 Y107.248 E.08003
G1 X119.006 Y109.149 E.07951
G1 X117.21 Y110.602 E.07821
G1 X115.092 Y111.489 E.07772
G1 X112.799 Y111.789 E.07829
G1 X110.498 Y111.507 E.07845
G1 X108.359 Y110.646 E.07804
G1 X106.531 Y109.234 E.07821
G1 X105.108 Y107.386 E.07892
G1 X104.18 Y105.247 E.07893
G1 X103.831 Y102.962 E.07825
G1 X104.116 Y100.668 E.07823
G1 X104.984 Y98.507 E.07885
G1 X106.354 Y96.622 E.07887
G1 X108.143 Y95.16 E.07819
G1 X110.256 Y94.238 E.07805
G1 X112.548 Y93.888 E.07849
G1 X114.847 Y94.122 E.0782
G1 X116.989 Y94.947 E.0777
G1 X118.825 Y96.349 E.0782
G1 X120.258 Y98.211 E.07954
G1 X121.172 Y100.329 E.07808
M204 S1000
;WIPE_START
G1 F8640
G1 X121.55 Y102.714 E-.55748
G1 X121.443 Y103.584 E-.20252
;WIPE_END
G1 E-.04 F2100
G1 Z9.8 F10800
G1 X128.45 Y102.714
G1 Z9.4
G1 E.8 F2100
M204 S800
G1 F900
G1 X128.804 Y100.385 E.07976
G1 X129.743 Y98.212 E.08011
G1 X131.176 Y96.35 E.07954
G1 X133.013 Y94.948 E.0782
G1 X135.154 Y94.124 E.07768
G1 X137.455 Y93.891 E.07828
G1 X139.744 Y94.241 E.07838
G1 X141.859 Y95.163 E.07811
G1 X143.647 Y96.626 E.07819
G1 X145.017 Y98.511 E.07887
G1 X145.885 Y100.673 E.07886
G1 X146.169 Y102.966 E.07822
G1 X145.82 Y105.251 E.07825
G1 X144.891 Y107.39 E.07893
G1 X143.468 Y109.237 E.07892
G1 X141.639 Y110.649 E.07821
G1 X139.5 Y111.51 E.07804
G1 X137.199 Y111.792 E.07845
G1 X134.906 Y111.491 E.07829
G1 X132.788 Y110.604 E.07772
G1 X130.993 Y109.15 E.07821
G1 X129.613 Y107.249 E.0795
G1 X128.737 Y105.052 E.08006
G1 X128.457 Y102.774 E.0777
M204 S1000
; stop printing object Among_Us.stl id:0 copy 0
;LAYER_CHANGE
;Z:9.6
;HEIGHT:0.200001
;BEFORE_LAYER_CHANGE
G92 E0.0
;9.6


;WIPE_START
G1 F8640
G1 X128.804 Y100.385 E-.55742
G1 X129.152 Y99.579 E-.20258
;WIPE_END
G1 E-.04 F2100
G1 Z9.8 F10800
;AFTER_LAYER_CHANGE
;9.6
; printing object Among_Us.stl id:0 copy 0
G1 X121.198 Y100.374
G1 Z9.6
G1 E.8 F2100
M204 S800
G1 F900
G1 X121.553 Y102.713 E.08006
G1 X121.264 Y105.06 E.08005
G1 X120.387 Y107.263 E.08028
G1 X119.005 Y109.17 E.07969
G1 X117.208 Y110.626 E.0783
G1 X115.089 Y111.512 E.07775
G1 X112.795 Y111.81 E.07831
G1 X110.493 Y111.523 E.07849
G1 X108.354 Y110.658 E.07812
G1 X106.525 Y109.242 E.0783
G1 X105.102 Y107.391 E.07903
G1 X104.173 Y105.249 E.07903
G1 X103.824 Y102.961 E.07835
G1 X104.109 Y100.665 E.07831
G1 X104.978 Y98.5 E.07896
G1 X106.348 Y96.612 E.07896
G1 X108.137 Y95.146 E.07828
G1 X110.251 Y94.22 E.07812
G1 X112.544 Y93.866 E.07853
G1 X113.274 Y93.932 E.02484
G1 X114.843 Y94.096 E.05338
G1 X116.986 Y94.921 E.07773
G1 X118.824 Y96.326 E.0783
G1 X120.258 Y98.194 E.07973
G1 X121.174 Y100.319 E.07834
M204 S1000
;WIPE_START
G1 F8640
G1 X121.553 Y102.713 E-.55954
G1 X121.447 Y103.574 E-.20046
;WIPE_END
G1 E-.04 F2100
G1 Z10 F10800
G1 X128.447 Y102.713
G1 Z9.6
G1 E.8 F2100
M204 S800
G1 F900
G1 X128.803 Y100.375 E.08006
G1 X129.743 Y98.195 E.08037
G1 X131.178 Y96.327 E.07973
G1 X133.016 Y94.922 E.0783
G1 X135.158 Y94.098 E.07771
G1 X137.46 Y93.868 E.0783
G1 X139.75 Y94.222 E.07842
G1 X141.865 Y95.149 E.07818
G1 X143.653 Y96.616 E.07828
G1 X145.023 Y98.504 E.07896
G1 X145.891 Y100.669 E.07896
G1 X146.176 Y102.965 E.07831
G1 X145.826 Y105.253 E.07835
G1 X144.897 Y107.395 E.07903
G1 X143.474 Y109.246 E.07903
G1 X141.645 Y110.662 E.0783
G1 X139.505 Y111.526 E.07812
G1 X137.204 Y111.813 E.07849
G1 X134.91 Y111.514 E.07831
G1 X132.791 Y110.627 E.07775
G1 X130.993 Y109.171 E.0783
G1 X129.612 Y107.264 E.07968
M73 Q10 S59
G1 X128.735 Y105.06 E.08031
G1 X128.455 Y102.773 E.078
M204 S1000
; stop printing object Among_Us.stl id:0 copy 0
;LAYER_CHANGE
;Z:9.8
;HEIGHT:0.2
;BEFORE_LAYER_CHANGE
G92 E0.0
;9.8


;WIPE_START
G1 F8640
G1 X128.803 Y100.375 E-.55948
G1 X129.146 Y99.577 E-.20052
;WIPE_END
G1 E-.04 F2100
G1 Z10 F10800
;AFTER_LAYER_CHANGE
;9.8
; printing object Among_Us.stl id:0 copy 0
G1 X121.2 Y100.364
G1 Z9.8
G1 E.8 F2100
M204 S800
G1 F900
G1 X121.555 Y102.712 E.08036
G1 X121.266 Y105.067 E.08034
M73 P10 R59
G1 X120.388 Y107.279 E.08054
G1 X119.005 Y109.191 E.07988
G1 X117.206 Y110.649 E.0784
G1 X115.085 Y111.535 E.07778
G1 X112.79 Y111.831 E.07832
G1 X110.488 Y111.54 E.07854
G1 X108.348 Y110.671 E.07819
G1 X106.518 Y109.251 E.0784
G1 X105.095 Y107.396 E.07913
G1 X104.166 Y105.251 E.07914
G1 X103.817 Y102.959 E.07845
G1 X104.103 Y100.661 E.07841
G1 X104.971 Y98.493 E.07905
G1 X106.342 Y96.601 E.07906
G1 X108.131 Y95.132 E.07837
G1 X110.246 Y94.201 E.0782
G1 X112.539 Y93.843 E.07856
G1 X113.477 Y93.928 E.03189
G1 X114.839 Y94.071 E.04634
G1 X116.983 Y94.895 E.07776
G1 X118.822 Y96.302 E.07839
G1 X120.259 Y98.176 E.07991
G1 X121.176 Y100.309 E.0786
M204 S1000
;WIPE_START
G1 F8640
G1 X121.555 Y102.712 E-.5616
G1 X121.451 Y103.564 E-.1984
;WIPE_END
G1 E-.04 F2100
G1 Z10.2 F10800
G1 X128.445 Y102.712
G1 Z9.8
G1 E.8 F2100
M204 S800
G1 F900
G1 X128.801 Y100.365 E.08036
G1 X129.742 Y98.177 E.08063
G1 X131.179 Y96.304 E.07991
G1 X133.018 Y94.897 E.07839
G1 X135.162 Y94.073 E.07774
G1 X137.465 Y93.846 E.07832
G1 X139.755 Y94.204 E.07846
G1 X141.871 Y95.135 E.07824
G1 X143.659 Y96.605 E.07837
G1 X145.03 Y98.497 E.07906
G1 X145.898 Y100.665 E.07905
G1 X146.183 Y102.964 E.07841
G1 X145.833 Y105.255 E.07845
G1 X144.904 Y107.4 E.07914
G1 X143.48 Y109.255 E.07913
G1 X141.65 Y110.674 E.0784
G1 X139.51 Y111.543 E.07819
G1 X137.208 Y111.833 E.07854
G1 X134.913 Y111.537 E.07832
G1 X132.793 Y110.651 E.07778
G1 X130.994 Y109.192 E.0784
G1 X129.612 Y107.28 E.07986
G1 X128.733 Y105.068 E.08056
G1 X128.452 Y102.772 E.0783
M204 S1000
; stop printing object Among_Us.stl id:0 copy 0
;LAYER_CHANGE
;Z:10
;HEIGHT:0.2
;BEFORE_LAYER_CHANGE
G92 E0.0
;10


;WIPE_START
G1 F8640
G1 X128.801 Y100.365 E-.56154
G1 X129.141 Y99.575 E-.19846
;WIPE_END
G1 E-.04 F2100
G1 Z10.2 F10800
;AFTER_LAYER_CHANGE
;10
; printing object Among_Us.stl id:0 copy 0
G1 X121.202 Y100.354
G1 Z10
G1 E.8 F2100
M204 S800
G1 F900
G1 X121.558 Y102.71 E.08066
G1 X121.268 Y105.075 E.08064
G1 X120.389 Y107.294 E.08079
G1 X119.004 Y109.211 E.08006
G1 X117.203 Y110.673 E.07849
G1 X115.082 Y111.558 E.07781
G1 X112.786 Y111.851 E.07834
G1 X110.483 Y111.557 E.07858
G1 X108.342 Y110.684 E.07827
G1 X106.512 Y109.26 E.0785
G1 X105.089 Y107.401 E.07923
G1 X104.16 Y105.252 E.07924
G1 X103.81 Y102.958 E.07855
G1 X104.096 Y100.657 E.07851
G1 X104.965 Y98.486 E.07915
G1 X106.336 Y96.591 E.07915
G1 X108.125 Y95.118 E.07847
G1 X110.24 Y94.183 E.07827
G1 X112.534 Y93.821 E.0786
G1 X113.68 Y93.924 E.03895
G1 X114.835 Y94.045 E.0393
G1 X116.98 Y94.869 E.07779
G1 X118.821 Y96.279 E.07849
G1 X120.259 Y98.158 E.0801
G1 X121.178 Y100.299 E.07886
M204 S1000
;WIPE_START
G1 F8640
G1 X121.558 Y102.71 E-.56366
G1 X121.454 Y103.554 E-.19634
;WIPE_END
G1 E-.04 F2100
G1 Z10.4 F10800
G1 X128.442 Y102.711
G1 Z10
G1 E.8 F2100
M204 S800
G1 F900
G1 X128.799 Y100.355 E.08066
G1 X129.742 Y98.159 E.08089
G1 X131.18 Y96.28 E.0801
G1 X133.021 Y94.871 E.07849
G1 X135.166 Y94.048 E.07776
G1 X137.47 Y93.823 E.07834
G1 X139.76 Y94.186 E.0785
G1 X141.876 Y95.121 E.07831
G1 X143.666 Y96.595 E.07847
G1 X145.036 Y98.49 E.07915
G1 X145.905 Y100.661 E.07915
G1 X146.19 Y102.963 E.07851
G1 X145.84 Y105.257 E.07855
G1 X144.91 Y107.405 E.07924
G1 X143.486 Y109.263 E.07923
G1 X141.656 Y110.687 E.0785
G1 X139.515 Y111.56 E.07827
G1 X137.212 Y111.854 E.07858
G1 X134.916 Y111.56 E.07834
G1 X132.795 Y110.674 E.07781
G1 X130.995 Y109.213 E.07849
G1 X129.611 Y107.295 E.08004
G1 X128.731 Y105.076 E.08082
G1 X128.45 Y102.771 E.0786
M204 S1000
; stop printing object Among_Us.stl id:0 copy 0
;LAYER_CHANGE
;Z:10.2
;HEIGHT:0.2
;BEFORE_LAYER_CHANGE
G92 E0.0
;10.2


;WIPE_START
G1 F8640
G1 X128.799 Y100.355 E-.56361
G1 X129.135 Y99.573 E-.19639
;WIPE_END
G1 E-.04 F2100
G1 Z10.4 F10800
;AFTER_LAYER_CHANGE
;10.2
; printing object Among_Us.stl id:0 copy 0
G1 X121.203 Y100.344
G1 Z10.2
G1 E.8 F2100
M204 S800
G1 F900
G1 X121.56 Y102.709 E.08096
G1 X121.27 Y105.083 E.08093
G1 X120.389 Y107.31 E.08107
G1 X119.003 Y109.232 E.08022
G1 X117.201 Y110.696 E.07859
G1 X115.079 Y111.582 E.07784
G1 X112.782 Y111.872 E.07836
G1 X110.478 Y111.574 E.07862
G1 X108.337 Y110.696 E.07834
G1 X106.506 Y109.268 E.07859
G1 X105.082 Y107.406 E.07934
G1 X104.153 Y105.254 E.07934
G1 X103.804 Y102.957 E.07865
G1 X104.089 Y100.653 E.0786
G1 X104.958 Y98.479 E.07924
G1 X106.329 Y96.581 E.07925
G1 X108.119 Y95.104 E.07856
G1 X110.235 Y94.165 E.07835
G1 X112.529 Y93.798 E.07863
G1 X113.883 Y93.921 E.046
G1 X114.831 Y94.02 E.03226
G1 X116.977 Y94.843 E.07782
G1 X118.82 Y96.256 E.07858
G1 X120.259 Y98.141 E.08028
G1 X121.18 Y100.289 E.07912
M204 S1000
;WIPE_START
G1 F8640
G1 X121.56 Y102.709 E-.56573
G1 X121.458 Y103.545 E-.19427
;WIPE_END
G1 E-.04 F2100
G1 Z10.6 F10800
G1 X128.44 Y102.71
G1 Z10.2
G1 E.8 F2100
M204 S800
G1 F900
G1 X128.797 Y100.345 E.08096
G1 X129.742 Y98.142 E.08115
G1 X131.182 Y96.257 E.08028
G1 X133.024 Y94.845 E.07858
G1 X135.17 Y94.022 E.07779
G1 X137.475 Y93.801 E.07836
G1 X139.766 Y94.167 E.07854
G1 X141.882 Y95.107 E.07838
G1 X143.672 Y96.585 E.07856
G1 X145.043 Y98.483 E.07925
G1 X145.911 Y100.657 E.07924
G1 X146.196 Y102.961 E.0786
G1 X145.846 Y105.259 E.07865
G1 X144.917 Y107.41 E.07934
G1 X143.493 Y109.272 E.07934
G1 X141.662 Y110.7 E.07859
G1 X139.52 Y111.577 E.07834
G1 X137.216 Y111.875 E.07862
G1 X134.92 Y111.584 E.07836
G1 X132.797 Y110.698 E.07784
G1 X130.996 Y109.233 E.07859
G1 X129.61 Y107.311 E.08023
G1 X128.729 Y105.083 E.08107
G1 X128.447 Y102.77 E.07889
M204 S1000
; stop printing object Among_Us.stl id:0 copy 0
;LAYER_CHANGE
;Z:10.4
